;FLAVOR:Marlin
;TIME:4512
;Filament used: 4.92446m
;Layer height: 0.2
;Generated with Cura_SteamEngine 3.5.0
M140 S60
M105
M190 S60
M104 S200
M105
M109 S200
M82 ;absolute extrusion mode
G21 ;metric values
G90 ;absolute positioning
M82 ;set extruder to absolute mode
M107 ;start with the fan off
G28 ;Home all axes (max endstops)
G1 Z15.0 F9000 ;move the platform down 15mm
G92 E0 ;zero the extruded length
G1 F200 E3 ;extrude 3mm of feed stock
G92 E0 ;zero the extruded length again
G1 F9000
;Put printing message on LCD screen
M117 Printing...
G92 E0
G1 F1500 E-6.5
;LAYER_COUNT:125
;LAYER:0
M107
G0 F3600 X0.904 Y19.274 Z0.3
;TYPE:SKIRT
G1 F1500 E0
G1 F1800 X0.637 Y19.397 E0.01467
G1 X-.11 Y19.652 E0.05405
G1 X-.879 Y19.831 E0.09344
G1 X-1.663 Y19.931 E0.13287
G1 X-2.258 Y19.954 E0.16257
G1 X-27.024 Y19.954 E1.39816
G1 X-27.813 Y19.914 E1.43757
G1 X-28.593 Y19.795 E1.47693
G1 X-29.358 Y19.597 E1.51636
G1 X-30.098 Y19.323 E1.55573
G1 X-30.807 Y18.975 E1.59513
G1 X-31.478 Y18.557 E1.63457
G1 X-32.102 Y18.074 E1.67394
G1 X-32.539 Y17.669 E1.70366
G1 X-32.656 Y17.552 E1.71192
G1 X-33.186 Y16.966 E1.75134
G1 X-33.653 Y16.33 E1.7907
G1 X-34.054 Y15.65 E1.83009
G1 X-34.384 Y14.932 E1.86951
G1 X-34.639 Y14.185 E1.90889
G1 X-34.818 Y13.416 E1.94828
G1 X-34.918 Y12.632 E1.98771
G1 X-34.941 Y12.037 E2.01742
G1 X-34.941 Y-12.729 E3.253
G1 X-34.901 Y-13.518 E3.29241
G1 X-34.782 Y-14.298 E3.33178
G1 X-34.584 Y-15.063 E3.3712
G1 X-34.31 Y-15.803 E3.41057
G1 X-33.962 Y-16.512 E3.44997
G1 X-33.544 Y-17.183 E3.48941
G1 X-33.061 Y-17.807 E3.52878
G1 X-32.656 Y-18.244 E3.55851
G1 X-32.539 Y-18.361 E3.56676
G1 X-31.953 Y-18.891 E3.60618
G1 X-31.317 Y-19.358 E3.64555
G1 X-30.637 Y-19.759 E3.68493
G1 X-29.919 Y-20.089 E3.72436
G1 X-29.172 Y-20.344 E3.76374
G1 X-28.403 Y-20.523 E3.80313
G1 X-27.619 Y-20.623 E3.84256
G1 X-27.024 Y-20.646 E3.87226
G1 X-2.258 Y-20.646 E5.10785
G1 X-1.469 Y-20.606 E5.14726
G1 X-.689 Y-20.487 E5.18662
G1 X0.076 Y-20.289 E5.22605
G1 X0.816 Y-20.015 E5.26542
G1 X1.321 Y-19.767 E5.29348
G1 X1.588 Y-19.89 E5.30815
G1 X2.335 Y-20.145 E5.34753
G1 X3.104 Y-20.324 E5.38692
G1 X3.888 Y-20.424 E5.42635
G1 X4.483 Y-20.447 E5.45606
G1 X29.249 Y-20.447 E6.69164
G1 X30.038 Y-20.407 E6.73105
G1 X30.818 Y-20.288 E6.77042
G1 X31.583 Y-20.09 E6.80984
G1 X32.323 Y-19.816 E6.84921
G1 X33.032 Y-19.468 E6.88861
G1 X33.703 Y-19.05 E6.92805
G1 X34.327 Y-18.567 E6.96742
G1 X34.764 Y-18.162 E6.99715
G1 X34.881 Y-18.045 E7.0054
G1 X35.411 Y-17.459 E7.04482
G1 X35.878 Y-16.823 E7.08419
G1 X36.279 Y-16.143 E7.12357
G1 X36.609 Y-15.425 E7.163
G1 X36.864 Y-14.678 E7.20238
G1 X37.043 Y-13.909 E7.24177
G1 X37.143 Y-13.125 E7.2812
G1 X37.166 Y-12.53 E7.3109
G1 X37.166 Y12.236 E8.54648
G1 X37.126 Y13.025 E8.5859
G1 X37.007 Y13.805 E8.62526
G1 X36.809 Y14.57 E8.66469
G1 X36.535 Y15.31 E8.70406
G1 X36.187 Y16.019 E8.74346
G1 X35.769 Y16.69 E8.7829
G1 X35.286 Y17.314 E8.82227
G1 X34.881 Y17.751 E8.85199
G1 X34.764 Y17.868 E8.86025
G1 X34.178 Y18.398 E8.89967
G1 X33.542 Y18.865 E8.93903
G1 X32.862 Y19.266 E8.97842
G1 X32.144 Y19.596 E9.01784
G1 X31.397 Y19.851 E9.05722
G1 X30.628 Y20.03 E9.09661
G1 X29.844 Y20.13 E9.13604
G1 X29.249 Y20.153 E9.16575
G1 X4.483 Y20.153 E10.40133
G1 X3.694 Y20.113 E10.44074
G1 X2.914 Y19.994 E10.48011
G1 X2.149 Y19.796 E10.51953
G1 X1.409 Y19.522 E10.5589
G1 X0.904 Y19.274 E10.58697
G0 F3600 X0.916 Y18.83
G1 F1800 X0.414 Y19.055 E10.61441
G1 X-.317 Y19.295 E10.6528
G1 X-1.068 Y19.458 E10.69114
G1 X-1.833 Y19.542 E10.72953
G1 X-2.258 Y19.554 E10.75075
G1 X-27.024 Y19.554 E11.98633
G1 X-27.792 Y19.514 E12.02469
G1 X-28.552 Y19.395 E12.06307
G1 X-29.295 Y19.197 E12.10144
G1 X-30.014 Y18.923 E12.13982
G1 X-30.7 Y18.576 E12.17818
G1 X-31.347 Y18.16 E12.21655
G1 X-31.947 Y17.679 E12.25492
G1 X-32.257 Y17.387 E12.27616
G1 X-32.374 Y17.27 E12.28442
G1 X-32.888 Y16.698 E12.32279
G1 X-33.341 Y16.076 E12.36117
G1 X-33.727 Y15.411 E12.39954
G1 X-34.042 Y14.709 E12.43792
G1 X-34.282 Y13.978 E12.47631
G1 X-34.445 Y13.227 E12.51465
G1 X-34.529 Y12.462 E12.55304
G1 X-34.541 Y12.037 E12.57426
G1 X-34.541 Y-12.729 E13.80984
G1 X-34.501 Y-13.497 E13.8482
G1 X-34.382 Y-14.257 E13.88658
G1 X-34.184 Y-15 E13.92494
G1 X-33.91 Y-15.719 E13.96333
G1 X-33.563 Y-16.405 E14.00169
G1 X-33.147 Y-17.052 E14.04006
G1 X-32.666 Y-17.652 E14.07843
G1 X-32.374 Y-17.962 E14.09967
G1 X-32.257 Y-18.079 E14.10793
G1 X-31.685 Y-18.593 E14.14629
G1 X-31.063 Y-19.046 E14.18468
G1 X-30.398 Y-19.432 E14.22304
G1 X-29.696 Y-19.747 E14.26143
G1 X-28.965 Y-19.987 E14.29982
G1 X-28.214 Y-20.15 E14.33816
G1 X-27.449 Y-20.234 E14.37655
G1 X-27.024 Y-20.246 E14.39776
G1 X-2.258 Y-20.246 E15.63335
G1 X-1.49 Y-20.206 E15.67171
G1 X-.73 Y-20.087 E15.71009
G1 X0.013 Y-19.889 E15.74845
G1 X0.732 Y-19.615 E15.78684
G1 X1.309 Y-19.323 E15.8191
G1 X1.811 Y-19.548 E15.84655
G1 X2.542 Y-19.788 E15.88493
G1 X3.293 Y-19.951 E15.92327
G1 X4.058 Y-20.035 E15.96167
G1 X4.483 Y-20.047 E15.98288
G1 X29.249 Y-20.047 E17.21846
G1 X30.017 Y-20.007 E17.25683
G1 X30.777 Y-19.888 E17.29521
G1 X31.52 Y-19.69 E17.33357
G1 X32.239 Y-19.416 E17.37196
G1 X32.925 Y-19.069 E17.41031
G1 X33.572 Y-18.653 E17.44869
G1 X34.172 Y-18.172 E17.48705
G1 X34.482 Y-17.88 E17.5083
G1 X34.599 Y-17.763 E17.51655
G1 X35.113 Y-17.191 E17.55492
G1 X35.566 Y-16.569 E17.59331
G1 X35.952 Y-15.904 E17.63167
G1 X36.267 Y-15.202 E17.67006
G1 X36.507 Y-14.471 E17.70844
G1 X36.67 Y-13.72 E17.74678
G1 X36.754 Y-12.955 E17.78518
G1 X36.766 Y-12.53 E17.80639
G1 X36.766 Y12.236 E19.04197
G1 X36.726 Y13.004 E19.08034
G1 X36.607 Y13.764 E19.11872
G1 X36.409 Y14.507 E19.15708
G1 X36.135 Y15.226 E19.19547
G1 X35.788 Y15.912 E19.23382
G1 X35.372 Y16.559 E19.2722
G1 X34.891 Y17.159 E19.31056
G1 X34.599 Y17.469 E19.33181
G1 X34.482 Y17.586 E19.34006
G1 X33.91 Y18.1 E19.37843
G1 X33.288 Y18.553 E19.41682
G1 X32.623 Y18.939 E19.45518
G1 X31.921 Y19.254 E19.49357
G1 X31.19 Y19.494 E19.53195
G1 X30.439 Y19.657 E19.57029
G1 X29.674 Y19.741 E19.60869
G1 X29.249 Y19.753 E19.6299
G1 X4.483 Y19.753 E20.86548
G1 X3.715 Y19.713 E20.90385
G1 X2.955 Y19.594 E20.94223
G1 X2.212 Y19.396 E20.98059
G1 X1.493 Y19.122 E21.01898
G1 X0.916 Y18.83 E21.05124
G0 F3600 X0.879 Y18.412
G1 F1800 X0.193 Y18.711 E21.08857
G1 X-.521 Y18.935 E21.12591
G1 X-1.254 Y19.082 E21.1632
G1 X-2.258 Y19.154 E21.21342
G1 X-27.024 Y19.154 E22.449
G1 X-27.771 Y19.114 E22.48632
G1 X-28.509 Y18.995 E22.52362
G1 X-29.231 Y18.797 E22.56097
G1 X-29.927 Y18.524 E22.59827
G1 X-30.59 Y18.177 E22.6356
G1 X-31.213 Y17.762 E22.67295
G1 X-31.974 Y17.104 E22.72314
G1 X-32.091 Y16.987 E22.73139
G1 X-32.591 Y16.43 E22.76874
G1 X-33.028 Y15.824 E22.80601
G1 X-33.399 Y15.174 E22.84335
G1 X-33.698 Y14.488 E22.88069
G1 X-33.922 Y13.774 E22.91802
G1 X-34.069 Y13.041 E22.95532
G1 X-34.141 Y12.037 E23.00553
G1 X-34.141 Y-12.729 E24.24112
G1 X-34.101 Y-13.476 E24.27844
G1 X-33.982 Y-14.214 E24.31573
G1 X-33.784 Y-14.936 E24.35308
G1 X-33.511 Y-15.632 E24.39038
G1 X-33.164 Y-16.295 E24.42772
G1 X-32.749 Y-16.918 E24.46506
G1 X-32.091 Y-17.679 E24.51525
G1 X-31.974 Y-17.796 E24.52351
G1 X-31.417 Y-18.296 E24.56085
G1 X-30.811 Y-18.733 E24.59812
G1 X-30.161 Y-19.104 E24.63546
G1 X-29.475 Y-19.403 E24.6728
G1 X-28.761 Y-19.627 E24.71013
G1 X-28.028 Y-19.774 E24.74743
G1 X-27.024 Y-19.846 E24.79765
G1 X-2.258 Y-19.846 E26.03323
G1 X-1.511 Y-19.806 E26.07055
G1 X-.773 Y-19.687 E26.10784
G1 X-0.051 Y-19.489 E26.14519
G1 X0.645 Y-19.216 E26.18249
G1 X1.295 Y-18.876 E26.21909
G1 X1.346 Y-18.905 E26.22202
G1 X2.032 Y-19.204 E26.25935
G1 X2.746 Y-19.428 E26.29669
G1 X3.479 Y-19.575 E26.33398
G1 X4.483 Y-19.647 E26.3842
G1 X29.249 Y-19.647 E27.61978
G1 X29.996 Y-19.607 E27.6571
G1 X30.734 Y-19.488 E27.6944
G1 X31.456 Y-19.29 E27.73175
G1 X32.152 Y-19.017 E27.76905
G1 X32.815 Y-18.67 E27.80638
G1 X33.438 Y-18.255 E27.84373
G1 X34.199 Y-17.597 E27.89392
G1 X34.316 Y-17.48 E27.90217
G1 X34.816 Y-16.923 E27.93952
G1 X35.253 Y-16.317 E27.97679
G1 X35.624 Y-15.667 E28.01413
G1 X35.923 Y-14.981 E28.05146
G1 X36.147 Y-14.267 E28.0888
G1 X36.294 Y-13.534 E28.1261
G1 X36.366 Y-12.53 E28.17631
G1 X36.366 Y12.236 E29.41189
G1 X36.326 Y12.983 E29.44922
G1 X36.207 Y13.721 E29.48651
G1 X36.009 Y14.443 E29.52386
G1 X35.736 Y15.139 E29.56116
G1 X35.389 Y15.802 E29.59849
G1 X34.974 Y16.425 E29.63584
G1 X34.316 Y17.186 E29.68603
G1 X34.199 Y17.303 E29.69429
G1 X33.642 Y17.803 E29.73163
G1 X33.036 Y18.24 E29.7689
G1 X32.386 Y18.611 E29.80624
G1 X31.7 Y18.91 E29.84358
G1 X30.986 Y19.134 E29.88091
G1 X30.253 Y19.281 E29.91821
G1 X29.249 Y19.353 E29.96843
G1 X4.483 Y19.353 E31.20401
G1 X3.736 Y19.313 E31.24133
G1 X2.998 Y19.194 E31.27862
G1 X2.276 Y18.996 E31.31597
G1 X1.58 Y18.723 E31.35327
G1 X0.93 Y18.383 E31.38987
G1 X0.879 Y18.412 E31.3928
G0 F3600 X0.643 Y18.082
G1 F1800 X-0.026 Y18.365 E31.42904
G1 X-.722 Y18.573 E31.46528
G1 X-1.437 Y18.703 E31.50153
G1 X-2.258 Y18.754 E31.54257
G1 X-27.024 Y18.754 E32.77815
G1 X-27.749 Y18.714 E32.81438
G1 X-28.466 Y18.595 E32.85064
G1 X-29.165 Y18.397 E32.88689
G1 X-29.838 Y18.124 E32.92312
G1 X-30.477 Y17.779 E32.95935
G1 X-31.074 Y17.365 E32.99559
G1 X-31.691 Y16.821 E33.03663
G1 X-31.808 Y16.704 E33.04489
G1 X-32.292 Y16.163 E33.0811
G1 X-32.715 Y15.572 E33.11736
G1 X-33.069 Y14.938 E33.15359
G1 X-33.352 Y14.269 E33.18983
G1 X-33.56 Y13.573 E33.22607
G1 X-33.69 Y12.858 E33.26233
G1 X-33.741 Y12.037 E33.30336
G1 X-33.741 Y-12.729 E34.53895
G1 X-33.701 Y-13.454 E34.57517
G1 X-33.582 Y-14.171 E34.61143
G1 X-33.384 Y-14.87 E34.64768
G1 X-33.111 Y-15.543 E34.68391
G1 X-32.766 Y-16.182 E34.72014
G1 X-32.352 Y-16.779 E34.75639
G1 X-31.808 Y-17.396 E34.79742
G1 X-31.691 Y-17.513 E34.80568
G1 X-31.15 Y-17.997 E34.84189
G1 X-30.559 Y-18.42 E34.87815
G1 X-29.925 Y-18.774 E34.91438
G1 X-29.256 Y-19.057 E34.95062
G1 X-28.56 Y-19.265 E34.98686
G1 X-27.845 Y-19.395 E35.02312
G1 X-27.024 Y-19.446 E35.06416
G1 X-2.258 Y-19.446 E36.29974
G1 X-1.533 Y-19.406 E36.33596
G1 X-.816 Y-19.287 E36.37222
G1 X-.117 Y-19.089 E36.40847
G1 X0.556 Y-18.816 E36.4447
G1 X1.195 Y-18.471 E36.48093
G1 X1.285 Y-18.409 E36.48638
G1 X1.582 Y-18.575 E36.50336
G1 X2.251 Y-18.858 E36.5396
G1 X2.947 Y-19.066 E36.57584
G1 X3.662 Y-19.196 E36.6121
G1 X4.483 Y-19.247 E36.65313
G1 X29.249 Y-19.247 E37.88872
G1 X29.974 Y-19.207 E37.92494
G1 X30.691 Y-19.088 E37.9612
G1 X31.39 Y-18.89 E37.99745
G1 X32.063 Y-18.617 E38.03368
G1 X32.702 Y-18.272 E38.06991
G1 X33.299 Y-17.858 E38.10616
G1 X33.916 Y-17.314 E38.14719
G1 X34.033 Y-17.197 E38.15545
G1 X34.517 Y-16.656 E38.19166
G1 X34.94 Y-16.065 E38.22792
G1 X35.294 Y-15.431 E38.26415
G1 X35.577 Y-14.762 E38.30039
G1 X35.785 Y-14.066 E38.33663
G1 X35.915 Y-13.351 E38.37289
G1 X35.966 Y-12.53 E38.41393
G1 X35.966 Y12.236 E39.64951
G1 X35.926 Y12.961 E39.68573
G1 X35.807 Y13.678 E39.72199
G1 X35.609 Y14.377 E39.75824
G1 X35.336 Y15.05 E39.79447
G1 X34.991 Y15.689 E39.8307
G1 X34.577 Y16.286 E39.86695
G1 X34.033 Y16.903 E39.90799
G1 X33.916 Y17.02 E39.91624
G1 X33.375 Y17.504 E39.95246
G1 X32.784 Y17.927 E39.98871
G1 X32.15 Y18.281 E40.02494
G1 X31.481 Y18.564 E40.06118
G1 X30.785 Y18.772 E40.09742
G1 X30.07 Y18.902 E40.13368
G1 X29.249 Y18.953 E40.17472
G1 X4.483 Y18.953 E41.4103
G1 X3.758 Y18.913 E41.44652
G1 X3.041 Y18.794 E41.48278
G1 X2.342 Y18.596 E41.51903
G1 X1.669 Y18.323 E41.55526
G1 X1.03 Y17.978 E41.59149
G1 X0.94 Y17.916 E41.59695
G1 X0.643 Y18.082 E41.61392
G0 F3600 X1.762 Y17.924
G1 F1800 X1.148 Y17.579 E41.64906
G1 X0.964 Y17.447 E41.66036
G1 X0.408 Y17.751 E41.69197
G1 X-.243 Y18.018 E41.72707
G1 X-.921 Y18.208 E41.7622
G1 X-1.616 Y18.321 E41.79733
G1 X-2.258 Y18.354 E41.8294
G1 X-27.024 Y18.354 E43.06498
G1 X-27.727 Y18.314 E43.10011
G1 X-28.421 Y18.195 E43.13524
G1 X-29.096 Y17.997 E43.17034
G1 X-29.745 Y17.725 E43.20544
G1 X-30.359 Y17.38 E43.24058
G1 X-30.93 Y16.969 E43.27568
G1 X-31.408 Y16.538 E43.30779
G1 X-31.525 Y16.421 E43.31605
G1 X-31.994 Y15.896 E43.35117
G1 X-32.4 Y15.321 E43.38629
G1 X-32.738 Y14.703 E43.42143
G1 X-33.005 Y14.052 E43.45653
G1 X-33.195 Y13.374 E43.49166
G1 X-33.308 Y12.679 E43.52679
G1 X-33.341 Y12.037 E43.55886
G1 X-33.341 Y-12.729 E44.79444
G1 X-33.301 Y-13.432 E44.82957
G1 X-33.182 Y-14.126 E44.8647
G1 X-32.984 Y-14.801 E44.8998
G1 X-32.712 Y-15.45 E44.9349
G1 X-32.367 Y-16.064 E44.97004
G1 X-31.956 Y-16.635 E45.00514
G1 X-31.525 Y-17.113 E45.03725
G1 X-31.408 Y-17.23 E45.0455
G1 X-30.883 Y-17.699 E45.08063
G1 X-30.308 Y-18.105 E45.11574
G1 X-29.69 Y-18.443 E45.15089
G1 X-29.039 Y-18.71 E45.18599
G1 X-28.361 Y-18.9 E45.22112
G1 X-27.666 Y-19.013 E45.25625
G1 X-27.024 Y-19.046 E45.28832
G1 X-2.258 Y-19.046 E46.5239
G1 X-1.555 Y-19.006 E46.55903
G1 X-.861 Y-18.887 E46.59416
G1 X-.186 Y-18.689 E46.62925
G1 X0.463 Y-18.417 E46.66436
G1 X1.077 Y-18.072 E46.6995
G1 X1.261 Y-17.94 E46.7108
G1 X1.817 Y-18.244 E46.74241
G1 X2.468 Y-18.511 E46.77751
G1 X3.146 Y-18.701 E46.81264
G1 X3.841 Y-18.814 E46.84777
G1 X4.483 Y-18.847 E46.87984
G1 X29.249 Y-18.847 E48.11542
G1 X29.952 Y-18.807 E48.15055
G1 X30.646 Y-18.688 E48.18568
G1 X31.321 Y-18.49 E48.22078
G1 X31.97 Y-18.218 E48.25589
G1 X32.584 Y-17.873 E48.29102
G1 X33.155 Y-17.462 E48.32612
G1 X33.633 Y-17.031 E48.35823
G1 X33.75 Y-16.914 E48.36649
G1 X34.219 Y-16.389 E48.40161
G1 X34.625 Y-15.814 E48.43673
G1 X34.963 Y-15.196 E48.47187
G1 X35.23 Y-14.545 E48.50697
G1 X35.42 Y-13.867 E48.5421
G1 X35.533 Y-13.172 E48.57723
G1 X35.566 Y-12.53 E48.6093
G1 X35.566 Y12.236 E49.84488
G1 X35.526 Y12.939 E49.88001
G1 X35.407 Y13.633 E49.91514
G1 X35.209 Y14.308 E49.95024
G1 X34.937 Y14.957 E49.98534
G1 X34.592 Y15.571 E50.02048
G1 X34.181 Y16.142 E50.05558
G1 X33.75 Y16.62 E50.08769
G1 X33.633 Y16.737 E50.09595
G1 X33.108 Y17.206 E50.13107
G1 X32.533 Y17.612 E50.16618
G1 X31.915 Y17.95 E50.20133
G1 X31.264 Y18.217 E50.23643
G1 X30.586 Y18.407 E50.27156
G1 X29.891 Y18.52 E50.30669
G1 X29.249 Y18.553 E50.33876
G1 X4.483 Y18.553 E51.57434
G1 X3.78 Y18.513 E51.60947
G1 X3.086 Y18.394 E51.6446
G1 X2.411 Y18.196 E51.67969
G1 X1.762 Y17.924 E51.7148
G0 F3600 X1.857 Y17.525
G1 F1800 X1.269 Y17.181 E51.74879
G1 X0.974 Y16.959 E51.76721
G1 X0.776 Y17.097 E51.77925
G1 X0.176 Y17.419 E51.81322
G1 X-.458 Y17.668 E51.8472
G1 X-1.117 Y17.841 E51.8812
G1 X-1.791 Y17.935 E51.91515
G1 X-2.258 Y17.954 E51.93846
G1 X-27.024 Y17.954 E53.17405
G1 X-27.704 Y17.914 E53.20803
G1 X-28.374 Y17.795 E53.24198
G1 X-29.026 Y17.598 E53.27596
G1 X-29.65 Y17.326 E53.30992
G1 X-30.238 Y16.982 E53.34391
G1 X-30.782 Y16.572 E53.37789
G1 X-31.125 Y16.255 E53.40119
G1 X-31.242 Y16.138 E53.40945
G1 X-31.695 Y15.629 E53.44344
G1 X-32.084 Y15.071 E53.47738
G1 X-32.406 Y14.471 E53.51135
G1 X-32.655 Y13.837 E53.54533
G1 X-32.828 Y13.178 E53.57933
G1 X-32.922 Y12.504 E53.61328
G1 X-32.941 Y12.037 E53.6366
G1 X-32.941 Y-12.729 E54.87218
G1 X-32.901 Y-13.409 E54.90616
G1 X-32.782 Y-14.079 E54.94011
G1 X-32.585 Y-14.731 E54.97409
G1 X-32.313 Y-15.355 E55.00805
G1 X-31.969 Y-15.943 E55.04204
G1 X-31.559 Y-16.487 E55.07602
G1 X-31.242 Y-16.83 E55.09932
G1 X-31.125 Y-16.947 E55.10758
G1 X-30.616 Y-17.4 E55.14157
G1 X-30.058 Y-17.789 E55.17551
G1 X-29.458 Y-18.111 E55.20948
G1 X-28.824 Y-18.36 E55.24346
G1 X-28.165 Y-18.533 E55.27746
G1 X-27.491 Y-18.627 E55.31141
G1 X-27.024 Y-18.646 E55.33473
G1 X-2.258 Y-18.646 E56.57031
G1 X-1.578 Y-18.606 E56.60429
G1 X-.908 Y-18.487 E56.63824
G1 X-.256 Y-18.29 E56.67222
G1 X0.368 Y-18.018 E56.70618
G1 X0.956 Y-17.674 E56.74017
G1 X1.251 Y-17.452 E56.75859
G1 X1.449 Y-17.59 E56.77063
G1 X2.049 Y-17.912 E56.8046
G1 X2.683 Y-18.161 E56.83858
G1 X3.342 Y-18.334 E56.87257
G1 X4.016 Y-18.428 E56.90653
G1 X4.483 Y-18.447 E56.92984
G1 X29.249 Y-18.447 E58.16543
G1 X29.929 Y-18.407 E58.19941
G1 X30.599 Y-18.288 E58.23336
G1 X31.251 Y-18.091 E58.26734
G1 X31.875 Y-17.819 E58.3013
G1 X32.463 Y-17.475 E58.33529
G1 X33.007 Y-17.065 E58.36927
G1 X33.35 Y-16.748 E58.39257
G1 X33.467 Y-16.631 E58.40083
G1 X33.92 Y-16.122 E58.43482
G1 X34.309 Y-15.564 E58.46876
G1 X34.631 Y-14.964 E58.50273
G1 X34.88 Y-14.33 E58.53671
G1 X35.053 Y-13.671 E58.57071
G1 X35.147 Y-12.997 E58.60466
G1 X35.166 Y-12.53 E58.62797
