;FLAVOR:Marlin
;TIME:1900
;Filament used: 2.12747m
;Layer height: 0.2
;Generated with Cura_SteamEngine 3.5.0
M140 S60
M105
M190 S60
M104 S200
M105
M109 S200
M82 ;absolute extrusion mode
G21 ;metric values
G90 ;absolute positioning
M82 ;set extruder to absolute mode
M107 ;start with the fan off
G28 ;Home all axes (max endstops)
G1 Z15.0 F9000 ;move the platform down 15mm
G92 E0 ;zero the extruded length
G1 F200 E3 ;extrude 3mm of feed stock
G92 E0 ;zero the extruded length again
G1 F9000
;Put printing message on LCD screen
M117 Printing...
G92 E0
G1 F1500 E-6.5
;LAYER_COUNT:159
;LAYER:0
M107
G0 F3600 X7.382 Y-9.671 Z0.3
;TYPE:SKIRT
G1 F1500 E0
G1 F1800 X8.171 Y-9.631 E0.03941
G1 X8.952 Y-9.512 E0.07883
G1 X9.716 Y-9.314 E0.1182
G1 X10.457 Y-9.04 E0.15762
G1 X11.166 Y-8.692 E0.19702
G1 X11.836 Y-8.275 E0.23639
G1 X12.461 Y-7.792 E0.2758
G1 X12.898 Y-7.386 E0.30556
G1 X13.015 Y-7.269 E0.31382
G1 X13.545 Y-6.683 E0.35323
G1 X14.012 Y-6.047 E0.3926
G1 X14.413 Y-5.367 E0.43198
G1 X14.743 Y-4.649 E0.47141
G1 X14.998 Y-3.902 E0.51079
G1 X15.177 Y-3.133 E0.55018
G1 X15.277 Y-2.349 E0.58961
G1 X15.3 Y-1.754 E0.61932
G1 X15.3 Y16.763 E1.54313
G1 X15.26 Y17.552 E1.58255
G1 X15.141 Y18.332 E1.62191
G1 X14.943 Y19.097 E1.66134
G1 X14.669 Y19.837 E1.7007
G1 X14.321 Y20.546 E1.74011
G1 X13.903 Y21.217 E1.77955
G1 X13.42 Y21.841 E1.81892
G1 X13.015 Y22.278 E1.84864
G1 X12.898 Y22.395 E1.8569
G1 X12.312 Y22.925 E1.89632
G1 X11.676 Y23.392 E1.93568
G1 X10.996 Y23.793 E1.97507
G1 X10.278 Y24.123 E2.01449
G1 X9.531 Y24.378 E2.05387
G1 X8.762 Y24.557 E2.09326
G1 X7.978 Y24.657 E2.13269
G1 X7.383 Y24.68 E2.1624
G1 X-7.383 Y24.68 E2.89908
G1 X-8.172 Y24.64 E2.93849
G1 X-8.952 Y24.521 E2.97785
G1 X-9.717 Y24.323 E3.01728
G1 X-10.457 Y24.049 E3.05665
G1 X-11.166 Y23.701 E3.09605
G1 X-11.837 Y23.283 E3.13549
G1 X-12.461 Y22.8 E3.17486
G1 X-12.898 Y22.395 E3.20458
G1 X-13.015 Y22.278 E3.21284
G1 X-13.545 Y21.692 E3.25226
G1 X-14.012 Y21.056 E3.29162
G1 X-14.413 Y20.376 E3.33101
G1 X-14.743 Y19.658 E3.37043
G1 X-14.998 Y18.911 E3.40981
G1 X-15.177 Y18.142 E3.4492
G1 X-15.277 Y17.358 E3.48863
G1 X-15.3 Y16.763 E3.51834
G1 X-15.3 Y-1.753 E4.44211
G1 X-15.26 Y-2.542 E4.48152
G1 X-15.141 Y-3.322 E4.52089
G1 X-14.943 Y-4.087 E4.56031
G1 X-14.669 Y-4.827 E4.59968
G1 X-14.321 Y-5.536 E4.63908
G1 X-13.903 Y-6.207 E4.67852
G1 X-13.42 Y-6.831 E4.71789
G1 X-13.015 Y-7.268 E4.74762
G1 X-12.898 Y-7.385 E4.75587
G1 X-12.312 Y-7.915 E4.79529
G1 X-11.676 Y-8.382 E4.83465
G1 X-10.996 Y-8.783 E4.87404
G1 X-10.278 Y-9.113 E4.91346
G1 X-9.531 Y-9.368 E4.95284
G1 X-8.762 Y-9.547 E4.99223
G1 X-7.978 Y-9.647 E5.03166
G1 X-7.384 Y-9.67 E5.06132
G1 X7.382 Y-9.671 E5.798
G0 F3600 X7.382 Y-9.271
G1 F1800 X8.151 Y-9.231 E5.83642
G1 X8.91 Y-9.112 E5.87475
G1 X9.654 Y-8.914 E5.91316
G1 X10.373 Y-8.64 E5.95155
G1 X11.059 Y-8.293 E5.9899
G1 X11.706 Y-7.877 E6.02827
G1 X12.306 Y-7.396 E6.06664
G1 X12.616 Y-7.104 E6.08789
G1 X12.733 Y-6.987 E6.09614
G1 X13.247 Y-6.415 E6.13451
G1 X13.7 Y-5.793 E6.1729
G1 X14.086 Y-5.128 E6.21126
G1 X14.401 Y-4.426 E6.24965
G1 X14.641 Y-3.695 E6.28803
G1 X14.804 Y-2.944 E6.32637
G1 X14.888 Y-2.179 E6.36477
G1 X14.9 Y-1.754 E6.38598
G1 X14.9 Y16.763 E7.30979
G1 X14.86 Y17.531 E7.34816
G1 X14.741 Y18.291 E7.38654
G1 X14.543 Y19.034 E7.4249
G1 X14.269 Y19.753 E7.46329
G1 X13.922 Y20.439 E7.50164
G1 X13.506 Y21.086 E7.54002
G1 X13.025 Y21.686 E7.57839
G1 X12.733 Y21.996 E7.59963
G1 X12.616 Y22.113 E7.60789
G1 X12.044 Y22.627 E7.64625
G1 X11.422 Y23.08 E7.68464
G1 X10.757 Y23.466 E7.723
G1 X10.055 Y23.781 E7.76139
G1 X9.324 Y24.021 E7.79978
G1 X8.573 Y24.184 E7.83812
G1 X7.808 Y24.268 E7.87651
G1 X7.383 Y24.28 E7.89772
G1 X-7.383 Y24.28 E8.6344
G1 X-8.151 Y24.24 E8.67277
G1 X-8.911 Y24.121 E8.71115
G1 X-9.654 Y23.923 E8.74951
G1 X-10.373 Y23.649 E8.7879
G1 X-11.059 Y23.302 E8.82625
G1 X-11.706 Y22.886 E8.86463
G1 X-12.306 Y22.405 E8.90299
G1 X-12.616 Y22.113 E8.92424
G1 X-12.733 Y21.996 E8.93249
G1 X-13.247 Y21.424 E8.97086
G1 X-13.7 Y20.802 E9.00925
G1 X-14.086 Y20.137 E9.04761
G1 X-14.401 Y19.435 E9.086
G1 X-14.641 Y18.704 E9.12438
G1 X-14.804 Y17.953 E9.16272
G1 X-14.888 Y17.188 E9.20112
G1 X-14.9 Y16.763 E9.22233
G1 X-14.9 Y-1.753 E10.1461
G1 X-14.86 Y-2.521 E10.18446
G1 X-14.741 Y-3.281 E10.22284
G1 X-14.543 Y-4.024 E10.2612
G1 X-14.269 Y-4.743 E10.29959
G1 X-13.922 Y-5.429 E10.33795
G1 X-13.506 Y-6.076 E10.37632
G1 X-13.025 Y-6.676 E10.41469
G1 X-12.733 Y-6.986 E10.43593
G1 X-12.616 Y-7.103 E10.44419
G1 X-12.044 Y-7.617 E10.48256
G1 X-11.422 Y-8.07 E10.52094
G1 X-10.757 Y-8.456 E10.55931
G1 X-10.055 Y-8.771 E10.59769
G1 X-9.324 Y-9.011 E10.63608
G1 X-8.573 Y-9.174 E10.67442
G1 X-7.808 Y-9.258 E10.71281
G1 X-7.384 Y-9.27 E10.73397
G1 X7.382 Y-9.271 E11.47065
G0 F3600 X7.383 Y-8.871
G1 F1800 X8.13 Y-8.831 E11.50798
G1 X8.868 Y-8.712 E11.54527
G1 X9.59 Y-8.514 E11.58262
G1 X10.286 Y-8.241 E11.61992
G1 X10.949 Y-7.895 E11.65723
G1 X11.571 Y-7.48 E11.69453
G1 X12.333 Y-6.821 E11.7448
G1 X12.45 Y-6.704 E11.75305
G1 X12.95 Y-6.147 E11.79039
G1 X13.387 Y-5.541 E11.82767
G1 X13.758 Y-4.891 E11.86501
G1 X14.057 Y-4.205 E11.90234
G1 X14.281 Y-3.491 E11.93967
G1 X14.428 Y-2.758 E11.97697
G1 X14.5 Y-1.754 E12.02719
G1 X14.5 Y16.763 E12.95101
G1 X14.46 Y17.51 E12.98833
G1 X14.341 Y18.248 E13.02562
G1 X14.143 Y18.97 E13.06297
G1 X13.87 Y19.666 E13.10027
G1 X13.523 Y20.329 E13.13761
G1 X13.108 Y20.952 E13.17495
G1 X12.45 Y21.713 E13.22514
G1 X12.333 Y21.83 E13.2334
G1 X11.776 Y22.33 E13.27074
G1 X11.17 Y22.767 E13.30802
G1 X10.52 Y23.138 E13.34536
G1 X9.834 Y23.437 E13.38269
G1 X9.12 Y23.661 E13.42002
G1 X8.387 Y23.808 E13.45732
G1 X7.383 Y23.88 E13.50754
G1 X-7.383 Y23.88 E14.24422
G1 X-8.13 Y23.84 E14.28154
G1 X-8.868 Y23.721 E14.31883
G1 X-9.59 Y23.523 E14.35618
G1 X-10.286 Y23.25 E14.39348
G1 X-10.949 Y22.903 E14.43082
G1 X-11.572 Y22.488 E14.46816
G1 X-12.333 Y21.83 E14.51835
G1 X-12.45 Y21.713 E14.52661
G1 X-12.95 Y21.156 E14.56395
G1 X-13.387 Y20.55 E14.60123
G1 X-13.758 Y19.9 E14.63857
G1 X-14.057 Y19.214 E14.6759
G1 X-14.281 Y18.5 E14.71323
G1 X-14.428 Y17.767 E14.75053
G1 X-14.5 Y16.763 E14.80075
G1 X-14.5 Y-1.753 E15.72452
G1 X-14.46 Y-2.5 E15.76184
G1 X-14.341 Y-3.238 E15.79913
G1 X-14.143 Y-3.96 E15.83648
G1 X-13.87 Y-4.656 E15.87378
G1 X-13.523 Y-5.319 E15.91112
G1 X-13.108 Y-5.942 E15.94846
G1 X-12.45 Y-6.703 E15.99865
G1 X-12.333 Y-6.82 E16.00691
G1 X-11.776 Y-7.32 E16.04425
G1 X-11.17 Y-7.757 E16.08153
G1 X-10.52 Y-8.128 E16.11886
G1 X-9.834 Y-8.427 E16.1562
G1 X-9.12 Y-8.651 E16.19353
G1 X-8.387 Y-8.798 E16.23083
G1 X-7.383 Y-8.87 E16.28105
G1 X7.383 Y-8.871 E17.01773
G0 F3600 X7.383 Y-8.471
G1 F1800 X8.108 Y-8.431 E17.05395
G1 X8.824 Y-8.312 E17.09016
G1 X9.523 Y-8.114 E17.12641
G1 X10.196 Y-7.841 E17.16264
G1 X10.835 Y-7.496 E17.19887
G1 X11.433 Y-7.083 E17.23513
G1 X12.05 Y-6.538 E17.2762
G1 X12.167 Y-6.421 E17.28446
G1 X12.651 Y-5.88 E17.32067
G1 X13.074 Y-5.289 E17.35693
G1 X13.428 Y-4.655 E17.39316
G1 X13.711 Y-3.986 E17.4294
G1 X13.919 Y-3.29 E17.46564
G1 X14.049 Y-2.575 E17.5019
G1 X14.1 Y-1.754 E17.54293
G1 X14.1 Y16.763 E18.46675
G1 X14.06 Y17.488 E18.50298
G1 X13.941 Y18.205 E18.53924
G1 X13.743 Y18.904 E18.57548
G1 X13.47 Y19.577 E18.61172
G1 X13.125 Y20.216 E18.64795
G1 X12.711 Y20.813 E18.68419
G1 X12.167 Y21.43 E18.72523
G1 X12.05 Y21.547 E18.73348
G1 X11.509 Y22.031 E18.7697
G1 X10.918 Y22.454 E18.80596
G1 X10.284 Y22.808 E18.84219
G1 X9.615 Y23.091 E18.87843
G1 X8.919 Y23.299 E18.91467
G1 X8.204 Y23.429 E18.95092
G1 X7.383 Y23.48 E18.99196
G1 X-7.383 Y23.48 E19.72864
G1 X-8.108 Y23.44 E19.76487
G1 X-8.825 Y23.321 E19.80113
G1 X-9.524 Y23.123 E19.83737
G1 X-10.197 Y22.85 E19.87361
G1 X-10.836 Y22.505 E19.90984
G1 X-11.433 Y22.091 E19.94608
G1 X-12.05 Y21.547 E19.98712
G1 X-12.167 Y21.43 E19.99537
G1 X-12.651 Y20.889 E20.03159
G1 X-13.074 Y20.298 E20.06785
G1 X-13.428 Y19.664 E20.10408
G1 X-13.711 Y18.995 E20.14032
G1 X-13.919 Y18.299 E20.17656
G1 X-14.049 Y17.584 E20.21281
G1 X-14.1 Y16.763 E20.25385
G1 X-14.1 Y-1.753 E21.17762
G1 X-14.06 Y-2.478 E21.21384
G1 X-13.941 Y-3.195 E21.2501
G1 X-13.743 Y-3.894 E21.28635
G1 X-13.47 Y-4.567 E21.32258
G1 X-13.125 Y-5.206 E21.35881
G1 X-12.711 Y-5.803 E21.39506
G1 X-12.167 Y-6.42 E21.4361
G1 X-12.05 Y-6.537 E21.44435
G1 X-11.509 Y-7.021 E21.48057
G1 X-10.918 Y-7.444 E21.51683
G1 X-10.284 Y-7.798 E21.55305
G1 X-9.615 Y-8.081 E21.58929
G1 X-8.919 Y-8.289 E21.62553
G1 X-8.204 Y-8.419 E21.66179
G1 X-7.383 Y-8.47 E21.70283
G1 X7.383 Y-8.471 E22.43951
G0 F3600 X7.383 Y-8.071
G1 F1800 X8.085 Y-8.031 E22.47459
G1 X8.779 Y-7.912 E22.50972
G1 X9.455 Y-7.715 E22.54485
G1 X10.104 Y-7.442 E22.57997
G1 X10.718 Y-7.098 E22.61509
G1 X11.289 Y-6.686 E22.65021
G1 X11.767 Y-6.255 E22.68232
G1 X11.884 Y-6.138 E22.69058
G1 X12.353 Y-5.613 E22.7257
G1 X12.759 Y-5.038 E22.76082
G1 X13.097 Y-4.42 E22.79596
G1 X13.364 Y-3.769 E22.83106
G1 X13.554 Y-3.091 E22.86619
G1 X13.667 Y-2.396 E22.90132
G1 X13.7 Y-1.754 E22.93339
G1 X13.7 Y16.763 E23.85721
G1 X13.66 Y17.466 E23.89234
G1 X13.541 Y18.16 E23.92747
G1 X13.343 Y18.835 E23.96256
G1 X13.071 Y19.484 E23.99767
G1 X12.726 Y20.098 E24.03281
G1 X12.315 Y20.669 E24.06791
G1 X11.884 Y21.147 E24.10002
G1 X11.767 Y21.264 E24.10827
G1 X11.242 Y21.733 E24.1434
G1 X10.667 Y22.139 E24.17851
G1 X10.049 Y22.477 E24.21365
G1 X9.398 Y22.744 E24.24876
G1 X8.72 Y22.934 E24.28389
G1 X8.025 Y23.047 E24.31902
G1 X7.383 Y23.08 E24.35109
G1 X-7.383 Y23.08 E25.08777
G1 X-8.086 Y23.04 E25.1229
G1 X-8.78 Y22.921 E25.15803
G1 X-9.455 Y22.723 E25.19312
G1 X-10.104 Y22.451 E25.22823
G1 X-10.718 Y22.106 E25.26336
G1 X-11.289 Y21.695 E25.29846
G1 X-11.767 Y21.264 E25.33057
G1 X-11.884 Y21.147 E25.33883
G1 X-12.353 Y20.622 E25.37395
G1 X-12.759 Y20.047 E25.40907
G1 X-13.097 Y19.429 E25.44421
G1 X-13.364 Y18.778 E25.47931
G1 X-13.554 Y18.1 E25.51444
G1 X-13.667 Y17.405 E25.54957
G1 X-13.7 Y16.763 E25.58164
G1 X-13.7 Y-1.753 E26.50541
G1 X-13.66 Y-2.456 E26.54054
G1 X-13.541 Y-3.15 E26.57567
G1 X-13.343 Y-3.825 E26.61076
G1 X-13.071 Y-4.474 E26.64587
G1 X-12.726 Y-5.088 E26.68101
G1 X-12.315 Y-5.659 E26.71611
G1 X-11.884 Y-6.137 E26.74822
G1 X-11.767 Y-6.254 E26.75647
G1 X-11.242 Y-6.723 E26.7916
G1 X-10.667 Y-7.129 E26.82671
G1 X-10.049 Y-7.467 E26.86185
G1 X-9.398 Y-7.734 E26.89696
G1 X-8.72 Y-7.924 E26.93209
G1 X-8.025 Y-8.037 E26.96722
G1 X-7.383 Y-8.07 E26.99929
G1 X7.383 Y-8.071 E27.73597
G0 F3600 X7.383 Y-7.671
G1 F1800 X8.062 Y-7.631 E27.7699
G1 X8.733 Y-7.512 E27.8039
G1 X9.384 Y-7.315 E27.83783
G1 X10.009 Y-7.043 E27.87184
G1 X10.597 Y-6.699 E27.90583
G1 X11.14 Y-6.289 E27.93977
G1 X11.484 Y-5.972 E27.96311
G1 X11.601 Y-5.855 E27.97136
G1 X12.054 Y-5.346 E28.00536
G1 X12.443 Y-4.788 E28.0393
G1 X12.765 Y-4.188 E28.07327
G1 X13.014 Y-3.554 E28.10725
G1 X13.187 Y-2.895 E28.14124
G1 X13.281 Y-2.221 E28.17519
G1 X13.3 Y-1.754 E28.19851
G1 X13.3 Y16.763 E29.12233
G1 X13.26 Y17.443 E29.15631
G1 X13.141 Y18.113 E29.19026
G1 X12.944 Y18.765 E29.22424
G1 X12.672 Y19.389 E29.2582
G1 X12.328 Y19.977 E29.29219
G1 X11.918 Y20.521 E29.32618
G1 X11.601 Y20.864 E29.34948
G1 X11.484 Y20.981 E29.35773
G1 X10.975 Y21.434 E29.39173
G1 X10.417 Y21.823 E29.42566
G1 X9.817 Y22.145 E29.45963
G1 X9.183 Y22.394 E29.49362
G1 X8.524 Y22.567 E29.52761
G1 X7.85 Y22.661 E29.56156
G1 X7.383 Y22.68 E29.58488
G1 X-7.383 Y22.68 E30.32156
G1 X-8.063 Y22.64 E30.35554
G1 X-8.733 Y22.521 E30.38949
G1 X-9.385 Y22.324 E30.42347
G1 X-10.009 Y22.052 E30.45743
G1 X-10.597 Y21.708 E30.49142
G1 X-11.141 Y21.298 E30.5254
G1 X-11.484 Y20.981 E30.5487
G1 X-11.601 Y20.864 E30.55696
G1 X-12.054 Y20.355 E30.59095
G1 X-12.443 Y19.797 E30.62489
G1 X-12.765 Y19.197 E30.65886
G1 X-13.014 Y18.563 E30.69285
G1 X-13.187 Y17.904 E30.72684
G1 X-13.281 Y17.23 E30.76079
G1 X-13.3 Y16.763 E30.78411
G1 X-13.3 Y-1.753 E31.70787
G1 X-13.26 Y-2.433 E31.74186
G1 X-13.141 Y-3.103 E31.77581
G1 X-12.944 Y-3.755 E31.80979
G1 X-12.672 Y-4.379 E31.84375
G1 X-12.328 Y-4.967 E31.87773
G1 X-11.918 Y-5.511 E31.91172
G1 X-11.601 Y-5.854 E31.93502
G1 X-11.484 Y-5.971 E31.94328
G1 X-10.975 Y-6.424 E31.97727
G1 X-10.417 Y-6.813 E32.01121
G1 X-9.817 Y-7.135 E32.04518
G1 X-9.183 Y-7.384 E32.07916
G1 X-8.524 Y-7.557 E32.11315
G1 X-7.85 Y-7.651 E32.1471
G1 X-7.383 Y-7.67 E32.17042
G1 X7.383 Y-7.671 E32.9071
G0 F3600 X7.383 Y-7.271
G1 F1800 X8.038 Y-7.231 E32.93984
G1 X8.684 Y-7.112 E32.97261
G1 X9.311 Y-6.915 E33.0054
G1 X9.909 Y-6.644 E33.03816
G1 X10.47 Y-6.301 E33.07096
G1 X11.201 Y-5.689 E33.11852
G1 X11.318 Y-5.572 E33.12678
G1 X11.754 Y-5.08 E33.15958
G1 X12.126 Y-4.539 E33.19233
G1 X12.43 Y-3.957 E33.22509
G1 X12.661 Y-3.342 E33.25787
G1 X12.816 Y-2.703 E33.29067
G1 X12.9 Y-1.754 E33.3382
G1 X12.9 Y16.763 E34.26202
G1 X12.86 Y17.419 E34.29481
G1 X12.741 Y18.065 E34.32758
G1 X12.544 Y18.692 E34.36037
G1 X12.272 Y19.29 E34.39314
G1 X11.93 Y19.851 E34.42592
G1 X11.318 Y20.581 E34.47345
G1 X11.201 Y20.698 E34.4817
G1 X10.709 Y21.134 E34.5145
G1 X10.168 Y21.506 E34.54726
G1 X9.586 Y21.81 E34.58001
G1 X8.971 Y22.041 E34.61279
G1 X8.332 Y22.196 E34.64559
G1 X7.383 Y22.28 E34.69312
G1 X-7.383 Y22.28 E35.4298
G1 X-8.039 Y22.24 E35.46259
G1 X-8.685 Y22.121 E35.49536
G1 X-9.312 Y21.924 E35.52815
G1 X-9.91 Y21.652 E35.56093
G1 X-10.471 Y21.31 E35.59371
G1 X-11.201 Y20.698 E35.64123
G1 X-11.318 Y20.581 E35.64949
G1 X-11.754 Y20.089 E35.68228
G1 X-12.126 Y19.548 E35.71504
G1 X-12.43 Y18.966 E35.7478
G1 X-12.661 Y18.351 E35.78057
G1 X-12.816 Y17.712 E35.81338
G1 X-12.9 Y16.763 E35.86091
G1 X-12.9 Y-1.753 E36.78468
G1 X-12.86 Y-2.409 E36.81747
G1 X-12.741 Y-3.055 E36.85024
G1 X-12.544 Y-3.682 E36.88303
G1 X-12.272 Y-4.28 E36.9158
G1 X-11.93 Y-4.841 E36.94858
G1 X-11.318 Y-5.571 E36.99611
G1 X-11.201 Y-5.688 E37.00436
G1 X-10.709 Y-6.124 E37.03716
G1 X-10.168 Y-6.496 E37.06991
G1 X-9.586 Y-6.8 E37.10267
G1 X-8.971 Y-7.031 E37.13545
G1 X-8.332 Y-7.186 E37.16825
G1 X-7.383 Y-7.27 E37.21578
G1 X7.383 Y-7.271 E37.95246
G0 F3600 X7.383 Y-6.871
G1 F1800 X8.014 Y-6.831 E37.98401
G1 X8.634 Y-6.712 E38.0155
G1 X9.235 Y-6.515 E38.04706
G1 X9.806 Y-6.244 E38.07859
G1 X10.339 Y-5.904 E38.11013
G1 X10.919 Y-5.407 E38.14824
G1 X11.036 Y-5.29 E38.15649
G1 X11.453 Y-4.815 E38.18803
G1 X11.808 Y-4.292 E38.21956
G1 X12.094 Y-3.728 E38.25111
G1 X12.306 Y-3.133 E38.28262
G1 X12.442 Y-2.515 E38.31419
G1 X12.5 Y-1.754 E38.35227
G1 X12.5 Y16.763 E39.27609
G1 X12.46 Y17.394 E39.30763
G1 X12.341 Y18.015 E39.33918
G1 X12.144 Y18.615 E39.37068
G1 X11.873 Y19.187 E39.40226
G1 X11.533 Y19.719 E39.43376
G1 X11.036 Y20.299 E39.47187
G1 X10.919 Y20.416 E39.48012
G1 X10.444 Y20.833 E39.51165
G1 X9.921 Y21.188 E39.54319
G1 X9.357 Y21.474 E39.57474
G1 X8.762 Y21.686 E39.60625
G1 X8.144 Y21.822 E39.63782
G1 X7.383 Y21.88 E39.6759
G1 X-7.383 Y21.88 E40.41258
G1 X-8.014 Y21.84 E40.44412
G1 X-8.635 Y21.721 E40.47567
G1 X-9.235 Y21.524 E40.50717
G1 X-9.807 Y21.253 E40.53875
G1 X-10.339 Y20.913 E40.57025
G1 X-10.919 Y20.416 E40.60836
G1 X-11.036 Y20.299 E40.61661
G1 X-11.453 Y19.824 E40.64815
G1 X-11.808 Y19.301 E40.67968
G1 X-12.094 Y18.737 E40.71123
G1 X-12.306 Y18.142 E40.74274
G1 X-12.442 Y17.524 E40.77431
G1 X-12.5 Y16.763 E40.81239
G1 X-12.5 Y-1.753 E41.73616
G1 X-12.46 Y-2.384 E41.7677
G1 X-12.341 Y-3.005 E41.79925
G1 X-12.144 Y-3.605 E41.83075
G1 X-11.873 Y-4.177 E41.86233
G1 X-11.533 Y-4.709 E41.89383
G1 X-11.036 Y-5.289 E41.93194
G1 X-10.919 Y-5.406 E41.94019
G1 X-10.444 Y-5.823 E41.97173
G1 X-9.921 Y-6.178 E42.00326
G1 X-9.357 Y-6.464 E42.03481
G1 X-8.762 Y-6.676 E42.06632
G1 X-8.144 Y-6.812 E42.09789
G1 X-7.383 Y-6.87 E42.13597
G1 X7.383 Y-6.871 E42.87265
G0 F3600 X7.383 Y-6.471
G1 F1800 X7.988 Y-6.431 E42.9029
G1 X8.582 Y-6.312 E42.93312
G1 X9.156 Y-6.116 E42.96338
G1 X9.699 Y-5.846 E42.99364
G1 X10.201 Y-5.507 E43.02386
G1 X10.636 Y-5.124 E43.05277
G1 X10.753 Y-5.007 E43.06103
G1 X11.152 Y-4.551 E43.09126
G1 X11.488 Y-4.046 E43.12152
G1 X11.755 Y-3.502 E43.15175
G1 X11.948 Y-2.927 E43.18201
G1 X12.064 Y-2.332 E43.21225
G1 X12.1 Y-1.754 E43.24115
G1 X12.1 Y16.763 E44.16496
G1 X12.06 Y17.368 E44.19521
G1 X11.941 Y17.962 E44.22544
G1 X11.745 Y18.536 E44.2557
