;FLAVOR:Marlin
;TIME:14049
;Filament used: 16.2951m
;Layer height: 0.2
;Generated with Cura_SteamEngine 3.5.0
M140 S60
M105
M190 S60
M104 S200
M105
M109 S200
M82 ;absolute extrusion mode
G21 ;metric values
G90 ;absolute positioning
M82 ;set extruder to absolute mode
M107 ;start with the fan off
G28 ;Home all axes (max endstops)
G1 Z15.0 F9000 ;move the platform down 15mm
G92 E0 ;zero the extruded length
G1 F200 E3 ;extrude 3mm of feed stock
G92 E0 ;zero the extruded length again
G1 F9000
;Put printing message on LCD screen
M117 Printing...
G92 E0
G1 F1500 E-6.5
;LAYER_COUNT:125
;LAYER:0
M107
G0 F3600 X-34.482 Y6.294 Z0.3
;TYPE:SKIRT
G1 F1500 E0
G1 F1800 X-34.958 Y6.171 E0.02453
G1 X-35.698 Y5.897 E0.0639
G1 X-36.407 Y5.549 E0.1033
G1 X-37.078 Y5.131 E0.14274
G1 X-37.702 Y4.648 E0.18211
G1 X-38.275 Y4.105 E0.22149
G1 X-38.62 Y3.717 E0.24739
G1 X-38.739 Y3.574 E0.25668
G1 X-39.212 Y2.943 E0.29602
G1 X-39.62 Y2.266 E0.33545
G1 X-39.957 Y1.552 E0.37485
G1 X-40.22 Y0.807 E0.41426
G1 X-40.406 Y0.04 E0.45364
G1 X-40.514 Y-.742 E0.49302
G1 X-40.542 Y-1.532 E0.53246
G1 X-40.49 Y-2.32 E0.57186
G1 X-40.415 Y-2.822 E0.59718
G1 X-35.949 Y-27.178 E1.83256
G1 X-35.768 Y-27.946 E1.87193
G1 X-35.67 Y-28.228 E1.88682
G1 X-35.725 Y-28.302 E1.89142
G1 X-36.126 Y-28.982 E1.93081
G1 X-36.456 Y-29.7 E1.97023
G1 X-36.711 Y-30.447 E2.00961
G1 X-36.89 Y-31.216 E2.049
G1 X-36.99 Y-32 E2.08843
G1 X-37.013 Y-32.595 E2.11814
G1 X-37.013 Y-47.361 E2.85482
G1 X-36.973 Y-48.15 E2.89423
G1 X-36.854 Y-48.93 E2.9336
G1 X-36.656 Y-49.695 E2.97302
G1 X-36.382 Y-50.435 E3.01239
G1 X-36.034 Y-51.144 E3.05179
G1 X-35.616 Y-51.815 E3.09123
G1 X-35.133 Y-52.439 E3.1306
G1 X-34.728 Y-52.876 E3.16033
G1 X-34.611 Y-52.993 E3.16858
G1 X-34.025 Y-53.523 E3.208
G1 X-33.389 Y-53.99 E3.24737
G1 X-32.709 Y-54.391 E3.28675
G1 X-31.991 Y-54.721 E3.32618
G1 X-31.244 Y-54.976 E3.36556
G1 X-30.475 Y-55.155 E3.40495
G1 X-29.691 Y-55.255 E3.44438
G1 X-29.096 Y-55.278 E3.47408
G1 X28.054 Y-55.278 E6.32531
G1 X28.843 Y-55.238 E6.36472
G1 X29.623 Y-55.119 E6.40409
G1 X30.388 Y-54.921 E6.44351
G1 X31.128 Y-54.647 E6.48288
G1 X31.837 Y-54.299 E6.52228
G1 X32.508 Y-53.881 E6.56172
G1 X33.132 Y-53.398 E6.60109
G1 X33.569 Y-52.993 E6.63082
G1 X33.686 Y-52.876 E6.63907
G1 X34.216 Y-52.29 E6.67849
G1 X34.683 Y-51.654 E6.71786
G1 X35.084 Y-50.974 E6.75724
G1 X35.414 Y-50.256 E6.79667
G1 X35.669 Y-49.509 E6.83604
G1 X35.848 Y-48.74 E6.87544
G1 X35.948 Y-47.956 E6.91487
G1 X35.971 Y-47.361 E6.94457
G1 X35.971 Y-32.595 E7.68125
G1 X35.931 Y-31.806 E7.72067
G1 X35.812 Y-31.026 E7.76003
G1 X35.614 Y-30.261 E7.79945
G1 X35.34 Y-29.521 E7.83882
G1 X34.992 Y-28.812 E7.87823
G1 X34.574 Y-28.141 E7.91767
G1 X34.406 Y-27.925 E7.93132
G1 X34.415 Y-27.897 E7.93279
G1 X39.302 Y-9.652 E8.87512
G1 X39.468 Y-8.88 E8.91452
G1 X39.55 Y-8.169 E8.95022
G1 X41.913 Y26.19 E10.66845
G1 X41.927 Y26.979 E10.70782
G1 X41.861 Y27.766 E10.74722
G1 X41.716 Y28.543 E10.78665
G1 X41.494 Y29.3 E10.82601
G1 X41.195 Y30.031 E10.86541
G1 X40.825 Y30.729 E10.90483
G1 X40.596 Y31.089 E10.92611
G1 X30.395 Y46.201 E11.83575
G1 X29.921 Y46.832 E11.87512
G1 X29.385 Y47.412 E11.91452
G1 X28.793 Y47.935 E11.95393
G1 X28.152 Y48.396 E11.99332
G1 X27.467 Y48.789 E12.03272
G1 X26.746 Y49.111 E12.07212
G1 X25.996 Y49.358 E12.11151
G1 X25.398 Y49.498 E12.14215
G1 X25.231 Y49.53 E12.15064
G1 X24.449 Y49.639 E12.19003
G1 X23.66 Y49.668 E12.22942
G1 X22.872 Y49.618 E12.26881
G1 X22.093 Y49.488 E12.30821
G1 X21.331 Y49.28 E12.34762
G1 X20.594 Y48.996 E12.38703
G1 X19.89 Y48.639 E12.42641
G1 X19.297 Y48.264 E12.46141
G1 X2.33 Y36.416 E13.49385
G1 X2.33 Y37.274 E13.53666
G1 X2.29 Y38.063 E13.57607
G1 X2.171 Y38.843 E13.61544
G1 X1.973 Y39.608 E13.65486
G1 X1.699 Y40.348 E13.69423
G1 X1.351 Y41.057 E13.73363
G1 X0.933 Y41.728 E13.77307
G1 X0.45 Y42.352 E13.81244
G1 X0.045 Y42.789 E13.84217
G1 X-0.072 Y42.906 E13.85042
G1 X-.658 Y43.436 E13.88984
G1 X-1.294 Y43.903 E13.92921
G1 X-1.974 Y44.304 E13.96859
G1 X-2.692 Y44.634 E14.00801
G1 X-3.439 Y44.889 E14.04739
G1 X-4.208 Y45.068 E14.08679
G1 X-4.992 Y45.168 E14.12622
G1 X-5.599 Y45.191 E14.15652
G1 X-29.327 Y45.153 E15.34032
G1 X-30.116 Y45.112 E15.37973
G1 X-30.896 Y44.991 E15.41911
G1 X-31.661 Y44.792 E15.45855
G1 X-32.401 Y44.517 E15.49794
G1 X-33.109 Y44.168 E15.53732
G1 X-33.779 Y43.749 E15.57674
G1 X-34.403 Y43.265 E15.61614
G1 X-34.975 Y42.72 E15.65556
G1 X-35.325 Y42.325 E15.68189
G1 X-47.672 Y27.401 E16.64823
G1 X-48.144 Y26.768 E16.68762
G1 X-48.549 Y26.09 E16.72702
G1 X-48.884 Y25.375 E16.76642
G1 X-49.145 Y24.63 E16.8058
G1 X-49.329 Y23.862 E16.8452
G1 X-49.435 Y23.079 E16.88462
G1 X-49.461 Y22.29 E16.92401
G1 X-49.426 Y21.681 E16.95444
G1 X-49.41 Y21.515 E16.96276
G1 X-49.295 Y20.733 E17.00219
G1 X-49.101 Y19.968 E17.04157
G1 X-48.83 Y19.226 E17.08098
G1 X-48.487 Y18.515 E17.12036
G1 X-48.073 Y17.843 E17.15974
G1 X-47.593 Y17.215 E17.19917
G1 X-47.052 Y16.64 E17.23856
G1 X-46.594 Y16.233 E17.26913
G1 X-34.482 Y6.294 E18.05081
G0 F3600 X-34.152 Y5.969
G1 F1800 X-34.895 Y5.771 E18.08917
G1 X-35.614 Y5.497 E18.12756
G1 X-36.3 Y5.15 E18.16591
G1 X-36.947 Y4.734 E18.20429
G1 X-37.547 Y4.253 E18.24265
G1 X-38.312 Y3.461 E18.29759
G1 X-38.431 Y3.318 E18.30687
G1 X-38.892 Y2.702 E18.34525
G1 X-39.286 Y2.042 E18.3836
G1 X-39.609 Y1.344 E18.42197
G1 X-39.859 Y0.617 E18.46033
G1 X-40.031 Y-.133 E18.49872
G1 X-40.125 Y-.896 E18.53707
G1 X-40.139 Y-1.665 E18.57544
G1 X-40.022 Y-2.75 E18.62989
G1 X-35.556 Y-27.106 E19.86527
G1 X-35.378 Y-27.854 E19.90363
G1 X-35.223 Y-28.295 E19.92695
G1 X-35.413 Y-28.556 E19.94306
G1 X-35.799 Y-29.221 E19.98142
G1 X-36.114 Y-29.923 E20.01981
G1 X-36.354 Y-30.654 E20.05819
G1 X-36.517 Y-31.405 E20.09653
G1 X-36.601 Y-32.17 E20.13493
G1 X-36.613 Y-32.595 E20.15614
G1 X-36.613 Y-47.361 E20.89282
G1 X-36.573 Y-48.129 E20.93119
G1 X-36.454 Y-48.889 E20.96956
G1 X-36.256 Y-49.632 E21.00793
G1 X-35.982 Y-50.351 E21.04631
G1 X-35.635 Y-51.037 E21.08467
G1 X-35.219 Y-51.684 E21.12304
G1 X-34.738 Y-52.284 E21.16141
G1 X-34.446 Y-52.594 E21.18266
G1 X-34.329 Y-52.711 E21.19091
G1 X-33.757 Y-53.225 E21.22928
G1 X-33.135 Y-53.678 E21.26767
G1 X-32.47 Y-54.064 E21.30603
G1 X-31.768 Y-54.379 E21.34441
G1 X-31.037 Y-54.619 E21.3828
G1 X-30.286 Y-54.782 E21.42114
G1 X-29.521 Y-54.866 E21.45953
G1 X-29.096 Y-54.878 E21.48075
G1 X28.054 Y-54.878 E24.33197
G1 X28.822 Y-54.838 E24.37034
G1 X29.582 Y-54.719 E24.40872
G1 X30.325 Y-54.521 E24.44708
G1 X31.044 Y-54.247 E24.48547
G1 X31.73 Y-53.9 E24.52382
G1 X32.377 Y-53.484 E24.5622
G1 X32.977 Y-53.003 E24.60056
G1 X33.287 Y-52.711 E24.62181
G1 X33.404 Y-52.594 E24.63006
G1 X33.918 Y-52.022 E24.66843
G1 X34.371 Y-51.4 E24.70682
G1 X34.757 Y-50.735 E24.74518
G1 X35.072 Y-50.033 E24.78357
G1 X35.312 Y-49.302 E24.82195
G1 X35.475 Y-48.551 E24.86029
G1 X35.559 Y-47.786 E24.89869
G1 X35.571 Y-47.361 E24.9199
G1 X35.571 Y-32.595 E25.65658
G1 X35.531 Y-31.827 E25.69495
G1 X35.412 Y-31.067 E25.73332
G1 X35.214 Y-30.324 E25.77169
G1 X34.94 Y-29.605 E25.81007
G1 X34.593 Y-28.919 E25.84843
G1 X34.177 Y-28.272 E25.8868
G1 X33.965 Y-28.007 E25.90373
G1 X34.029 Y-27.794 E25.91483
G1 X38.916 Y-9.549 E26.85717
G1 X39.076 Y-8.796 E26.89557
G1 X39.151 Y-8.142 E26.92841
G1 X41.514 Y26.217 E28.64664
G1 X41.526 Y26.986 E28.68501
G1 X41.459 Y27.753 E28.72342
G1 X41.313 Y28.508 E28.76179
G1 X41.089 Y29.244 E28.80017
G1 X40.79 Y29.952 E28.83851
G1 X40.264 Y30.865 E28.89108
G1 X30.063 Y45.977 E29.80072
G1 X29.601 Y46.591 E29.83905
G1 X29.076 Y47.154 E29.87746
G1 X28.497 Y47.66 E29.91582
G1 X27.868 Y48.102 E29.95417
G1 X27.196 Y48.477 E29.99257
G1 X26.489 Y48.78 E30.03094
G1 X25.754 Y49.009 E30.06935
G1 X25.323 Y49.105 E30.09138
G1 X25.156 Y49.137 E30.09986
G1 X24.394 Y49.242 E30.13824
G1 X23.625 Y49.268 E30.17663
G1 X22.858 Y49.213 E30.21499
G1 X22.1 Y49.08 E30.25338
G1 X21.361 Y48.868 E30.29174
G1 X20.647 Y48.581 E30.33013
G1 X19.967 Y48.221 E30.36852
G1 X19.526 Y47.936 E30.39471
G1 X1.93 Y35.648 E31.46545
G1 X1.93 Y37.274 E31.54658
G1 X1.89 Y38.042 E31.58494
G1 X1.771 Y38.802 E31.62332
G1 X1.573 Y39.545 E31.66168
G1 X1.299 Y40.264 E31.70007
G1 X0.952 Y40.95 E31.73842
G1 X0.536 Y41.597 E31.7768
G1 X0.055 Y42.197 E31.81517
G1 X-.237 Y42.507 E31.83641
G1 X-.354 Y42.624 E31.84467
G1 X-.926 Y43.138 E31.88303
G1 X-1.548 Y43.591 E31.92142
G1 X-2.213 Y43.977 E31.95978
G1 X-2.915 Y44.292 E31.99817
G1 X-3.646 Y44.532 E32.03656
G1 X-4.397 Y44.695 E32.0749
G1 X-5.162 Y44.779 E32.11329
G1 X-5.599 Y44.791 E32.1351
G1 X-29.327 Y44.753 E33.3189
G1 X-30.095 Y44.712 E33.35727
G1 X-30.855 Y44.591 E33.39566
G1 X-31.598 Y44.392 E33.43404
G1 X-32.316 Y44.117 E33.4724
G1 X-33.002 Y43.769 E33.51077
G1 X-33.648 Y43.352 E33.54913
G1 X-34.247 Y42.87 E33.58749
G1 X-35.017 Y42.07 E33.64289
G1 X-47.364 Y27.146 E34.60923
G1 X-47.822 Y26.529 E34.64757
G1 X-48.215 Y25.867 E34.68598
G1 X-48.536 Y25.168 E34.72435
G1 X-48.783 Y24.44 E34.7627
G1 X-48.954 Y23.69 E34.80108
G1 X-49.045 Y22.926 E34.83947
G1 X-49.057 Y22.157 E34.87784
G1 X-49.028 Y21.719 E34.89974
G1 X-49.012 Y21.553 E34.90806
G1 X-48.898 Y20.792 E34.94645
G1 X-48.707 Y20.047 E34.98482
G1 X-48.438 Y19.327 E35.02316
G1 X-48.097 Y18.637 E35.06156
G1 X-47.686 Y17.987 E35.09993
G1 X-47.209 Y17.384 E35.13829
G1 X-46.673 Y16.832 E35.17668
G1 X-46.34 Y16.542 E35.19871
G1 X-33.567 Y6.061 E36.02303
G1 X-34.152 Y5.969 E36.05257
G0 F3600 X-34.109 Y5.569
G1 F1800 X-34.831 Y5.371 E36.08992
G1 X-35.527 Y5.098 E36.12722
G1 X-36.19 Y4.751 E36.16456
G1 X-36.813 Y4.336 E36.2019
G1 X-37.387 Y3.857 E36.2392
G1 X-38.005 Y3.206 E36.28398
G1 X-38.124 Y3.063 E36.29326
G1 X-38.571 Y2.463 E36.33059
G1 X-38.951 Y1.819 E36.3679
G1 X-39.261 Y1.138 E36.40523
G1 X-39.496 Y0.428 E36.44254
G1 X-39.654 Y-.303 E36.47985
G1 X-39.733 Y-1.047 E36.51718
G1 X-39.733 Y-1.795 E36.5545
G1 X-39.628 Y-2.677 E36.59881
G1 X-35.162 Y-27.033 E37.8342
G1 X-34.988 Y-27.761 E37.87154
G1 X-34.775 Y-28.358 E37.90316
G1 X-35.1 Y-28.808 E37.93086
G1 X-35.471 Y-29.458 E37.96819
G1 X-35.77 Y-30.144 E38.00553
G1 X-35.994 Y-30.858 E38.04286
G1 X-36.141 Y-31.591 E38.08016
G1 X-36.213 Y-32.595 E38.13038
G1 X-36.213 Y-47.361 E38.86706
G1 X-36.173 Y-48.108 E38.90438
G1 X-36.054 Y-48.846 E38.94167
G1 X-35.856 Y-49.568 E38.97902
G1 X-35.583 Y-50.264 E39.01632
G1 X-35.236 Y-50.927 E39.05366
G1 X-34.821 Y-51.55 E39.091
G1 X-34.163 Y-52.311 E39.14119
G1 X-34.046 Y-52.428 E39.14945
G1 X-33.489 Y-52.928 E39.18679
G1 X-32.883 Y-53.365 E39.22407
G1 X-32.233 Y-53.736 E39.2614
G1 X-31.547 Y-54.035 E39.29874
G1 X-30.833 Y-54.259 E39.33607
G1 X-30.1 Y-54.406 E39.37337
G1 X-29.096 Y-54.478 E39.42359
G1 X28.054 Y-54.478 E42.27481
G1 X28.801 Y-54.438 E42.31213
G1 X29.539 Y-54.319 E42.34943
G1 X30.261 Y-54.121 E42.38678
G1 X30.957 Y-53.848 E42.42408
G1 X31.62 Y-53.501 E42.46141
G1 X32.243 Y-53.086 E42.49876
G1 X33.004 Y-52.428 E42.54895
G1 X33.121 Y-52.311 E42.5572
G1 X33.621 Y-51.754 E42.59455
G1 X34.058 Y-51.148 E42.63182
G1 X34.429 Y-50.498 E42.66916
G1 X34.728 Y-49.812 E42.7065
G1 X34.952 Y-49.098 E42.74383
G1 X35.099 Y-48.365 E42.78113
G1 X35.171 Y-47.361 E42.83135
G1 X35.171 Y-32.595 E43.56802
G1 X35.131 Y-31.848 E43.60535
G1 X35.012 Y-31.11 E43.64264
G1 X34.814 Y-30.388 E43.67999
G1 X34.541 Y-29.692 E43.71729
G1 X34.194 Y-29.029 E43.75462
G1 X33.779 Y-28.406 E43.79197
G1 X33.505 Y-28.089 E43.81287
G1 X33.643 Y-27.69 E43.83394
G1 X38.53 Y-9.445 E44.77627
G1 X38.684 Y-8.713 E44.81359
G1 X38.752 Y-8.114 E44.84367
G1 X41.115 Y26.245 E46.56189
G1 X41.126 Y26.993 E46.59922
G1 X41.057 Y27.738 E46.63654
G1 X40.91 Y28.471 E46.67384
G1 X40.685 Y29.184 E46.71114
G1 X40.385 Y29.87 E46.7485
G1 X39.933 Y30.641 E46.79308
G1 X29.732 Y45.753 E47.70272
G1 X29.281 Y46.35 E47.74005
G1 X28.769 Y46.895 E47.77735
G1 X28.201 Y47.383 E47.81471
G1 X27.585 Y47.807 E47.85202
G1 X26.927 Y48.163 E47.88935
G1 X26.235 Y48.447 E47.92666
G1 X25.247 Y48.712 E47.9777
G1 X25.08 Y48.744 E47.98618
G1 X24.339 Y48.845 E48.02349
G1 X23.591 Y48.867 E48.06083
G1 X22.846 Y48.809 E48.09811
G1 X22.11 Y48.671 E48.13547
G1 X21.394 Y48.456 E48.17276
G1 X20.704 Y48.165 E48.21012
G1 X19.755 Y47.608 E48.26502
G1 X1.53 Y34.881 E49.37403
G1 X1.53 Y37.274 E49.49342
G1 X1.49 Y38.021 E49.53074
G1 X1.371 Y38.759 E49.56803
G1 X1.173 Y39.481 E49.60538
G1 X0.9 Y40.177 E49.64268
G1 X0.553 Y40.84 E49.68002
G1 X0.138 Y41.463 E49.71736
G1 X-.52 Y42.224 E49.76755
G1 X-.637 Y42.341 E49.77581
G1 X-1.194 Y42.841 E49.81315
G1 X-1.8 Y43.278 E49.85043
G1 X-2.45 Y43.649 E49.88777
G1 X-3.136 Y43.948 E49.9251
G1 X-3.85 Y44.172 E49.96243
G1 X-4.583 Y44.319 E49.99973
G1 X-5.598 Y44.391 E50.0505
G1 X-29.326 Y44.353 E51.23429
G1 X-30.073 Y44.312 E51.27162
G1 X-30.811 Y44.191 E51.30893
G1 X-31.533 Y43.992 E51.34629
G1 X-32.228 Y43.718 E51.38356
G1 X-32.891 Y43.371 E51.4209
G1 X-33.513 Y42.955 E51.45823
G1 X-34.087 Y42.475 E51.49556
G1 X-34.708 Y41.815 E51.54077
G1 X-47.055 Y26.891 E52.50711
G1 X-47.501 Y26.29 E52.54445
G1 X-47.88 Y25.645 E52.58178
G1 X-48.187 Y24.963 E52.61909
G1 X-48.42 Y24.252 E52.65642
G1 X-48.576 Y23.521 E52.69371
G1 X-48.653 Y22.777 E52.73102
G1 X-48.63 Y21.757 E52.78193
G1 X-48.614 Y21.591 E52.79025
G1 X-48.502 Y20.852 E52.82754
G1 X-48.312 Y20.128 E52.86488
G1 X-48.047 Y19.429 E52.90217
G1 X-47.708 Y18.762 E52.9395
G1 X-47.299 Y18.135 E52.97685
G1 X-46.827 Y17.555 E53.01416
G1 X-46.086 Y16.852 E53.06512
G1 X-32.53 Y5.728 E53.93999
G1 X-32.624 Y5.728 E53.94468
G1 X-33.371 Y5.688 E53.982
G1 X-34.109 Y5.569 E54.01929
G0 F3600 X-34.066 Y5.169
G1 F1800 X-34.765 Y4.971 E54.05554
G1 X-35.438 Y4.698 E54.09177
G1 X-36.077 Y4.353 E54.128
G1 X-36.674 Y3.939 E54.16425
G1 X-37.222 Y3.463 E54.20046
G1 X-37.697 Y2.95 E54.23534
G1 X-37.816 Y2.807 E54.24462
G1 X-38.249 Y2.224 E54.28085
G1 X-38.616 Y1.597 E54.3171
G1 X-38.911 Y0.933 E54.35335
G1 X-39.132 Y0.241 E54.38959
G1 X-39.275 Y-.471 E54.42582
G1 X-39.339 Y-1.195 E54.46208
G1 X-39.324 Y-1.921 E54.49831
G1 X-39.235 Y-2.605 E54.53272
G1 X-34.769 Y-26.961 E55.76811
G1 X-34.599 Y-27.668 E55.80438
G1 X-34.352 Y-28.351 E55.84062
G1 X-34.319 Y-28.419 E55.84439
G1 X-34.364 Y-28.469 E55.84775
G1 X-34.787 Y-29.06 E55.88401
G1 X-35.141 Y-29.694 E55.92023
G1 X-35.424 Y-30.363 E55.95647
G1 X-35.632 Y-31.059 E55.99271
G1 X-35.762 Y-31.774 E56.02897
G1 X-35.813 Y-32.595 E56.07001
G1 X-35.813 Y-47.361 E56.80669
G1 X-35.773 Y-48.086 E56.84291
G1 X-35.654 Y-48.803 E56.87917
G1 X-35.456 Y-49.502 E56.91542
G1 X-35.183 Y-50.175 E56.95165
G1 X-34.838 Y-50.814 E56.98788
G1 X-34.424 Y-51.411 E57.02413
G1 X-33.88 Y-52.028 E57.06517
G1 X-33.763 Y-52.145 E57.07342
G1 X-33.222 Y-52.629 E57.10964
G1 X-32.631 Y-53.052 E57.1459
G1 X-31.997 Y-53.406 E57.18212
G1 X-31.328 Y-53.689 E57.21836
G1 X-30.632 Y-53.897 E57.2546
G1 X-29.917 Y-54.027 E57.29086
G1 X-29.096 Y-54.078 E57.3319
G1 X28.054 Y-54.078 E60.18312
G1 X28.779 Y-54.038 E60.21935
G1 X29.496 Y-53.919 E60.25561
G1 X30.195 Y-53.721 E60.29185
G1 X30.868 Y-53.448 E60.32809
G1 X31.507 Y-53.103 E60.36432
G1 X32.104 Y-52.689 E60.40056
G1 X32.721 Y-52.145 E60.4416
G1 X32.838 Y-52.028 E60.44986
G1 X33.322 Y-51.487 E60.48607
G1 X33.745 Y-50.896 E60.52233
G1 X34.099 Y-50.262 E60.55856
G1 X34.382 Y-49.593 E60.5948
G1 X34.59 Y-48.897 E60.63104
G1 X34.72 Y-48.182 E60.6673
G1 X34.771 Y-47.361 E60.70833
G1 X34.771 Y-32.595 E61.44501
G1 X34.731 Y-31.87 E61.48124
G1 X34.612 Y-31.153 E61.5175
G1 X34.414 Y-30.454 E61.55374
G1 X34.141 Y-29.781 E61.58998
G1 X33.796 Y-29.142 E61.62621
G1 X33.382 Y-28.545 E61.66245
G1 X33.057 Y-28.177 E61.68695
G1 X33.256 Y-27.587 E61.71801
G1 X38.143 Y-9.342 E62.66035
G1 X38.292 Y-8.631 E62.69659
G1 X38.352 Y-8.087 E62.72389
G1 X40.715 Y26.272 E64.44212
G1 X40.725 Y26.998 E64.47834
G1 X40.655 Y27.721 E64.51458
G1 X40.506 Y28.432 E64.55083
G1 X40.28 Y29.123 E64.5871
G1 X39.979 Y29.784 E64.62333
G1 X39.601 Y30.418 E64.66016
G1 X29.4 Y45.53 E65.56979
G1 X28.961 Y46.108 E65.606
G1 X28.462 Y46.635 E65.64221
G1 X27.907 Y47.104 E65.67846
G1 X27.304 Y47.509 E65.7147
G1 X26.66 Y47.846 E65.75097
G1 X25.983 Y48.109 E65.7872
G1 X25.172 Y48.319 E65.829
G1 X25.005 Y48.351 E65.83748
G1 X24.285 Y48.448 E65.87372
G1 X23.559 Y48.466 E65.90996
G1 X22.835 Y48.403 E65.94621
