;FLAVOR:Marlin
;TIME:2847
;Filament used: 3.32092m
;Layer height: 0.2
;Generated with Cura_SteamEngine 3.5.0
M140 S60
M105
M190 S60
M104 S200
M105
M109 S200
M82 ;absolute extrusion mode
G21 ;metric values
G90 ;absolute positioning
M82 ;set extruder to absolute mode
M107 ;start with the fan off
G28 ;Home all axes (max endstops)
G1 Z15.0 F9000 ;move the platform down 15mm
G92 E0 ;zero the extruded length
G1 F200 E3 ;extrude 3mm of feed stock
G92 E0 ;zero the extruded length again
G1 F9000
;Put printing message on LCD screen
M117 Printing...
G92 E0
G1 F1500 E-6.5
;LAYER_COUNT:115
;LAYER:0
M107
G0 F3600 X-26.518 Y15.3 Z0.3
;TYPE:SKIRT
G1 F1500 E0
G1 F1800 X-27.307 Y15.26 E0.03941
G1 X-28.087 Y15.141 E0.07878
G1 X-28.852 Y14.943 E0.1182
G1 X-29.592 Y14.669 E0.15757
G1 X-30.301 Y14.321 E0.19697
G1 X-30.972 Y13.903 E0.23641
G1 X-31.596 Y13.42 E0.27578
G1 X-32.033 Y13.015 E0.30551
G1 X-32.15 Y12.898 E0.31376
G1 X-32.68 Y12.312 E0.35318
G1 X-33.147 Y11.676 E0.39255
G1 X-33.548 Y10.996 E0.43193
G1 X-33.878 Y10.278 E0.47136
G1 X-34.133 Y9.531 E0.51074
G1 X-34.312 Y8.762 E0.55013
G1 X-34.412 Y7.978 E0.58956
G1 X-34.435 Y7.384 E0.61921
G1 X-34.436 Y-7.382 E1.35589
G1 X-34.396 Y-8.171 E1.39531
G1 X-34.277 Y-8.952 E1.43472
G1 X-34.079 Y-9.716 E1.4741
G1 X-33.805 Y-10.457 E1.51351
G1 X-33.457 Y-11.166 E1.55291
G1 X-33.04 Y-11.836 E1.59229
G1 X-32.557 Y-12.461 E1.63169
G1 X-32.151 Y-12.898 E1.66145
G1 X-32.034 Y-13.015 E1.66971
G1 X-31.448 Y-13.545 E1.70913
G1 X-30.812 Y-14.012 E1.74849
G1 X-30.132 Y-14.413 E1.78788
G1 X-29.414 Y-14.743 E1.8273
G1 X-28.667 Y-14.998 E1.86668
G1 X-27.898 Y-15.177 E1.90607
G1 X-27.114 Y-15.277 E1.9455
G1 X-26.519 Y-15.3 E1.97521
G1 X30.633 Y-15.3 E4.82653
G1 X31.422 Y-15.26 E4.86595
G1 X32.202 Y-15.141 E4.90531
G1 X32.967 Y-14.943 E4.94474
G1 X33.707 Y-14.669 E4.98411
G1 X34.416 Y-14.321 E5.02351
G1 X35.087 Y-13.903 E5.06295
G1 X35.711 Y-13.42 E5.10232
G1 X36.148 Y-13.015 E5.13204
G1 X36.265 Y-12.898 E5.1403
G1 X36.795 Y-12.312 E5.17972
G1 X37.262 Y-11.676 E5.21908
G1 X37.663 Y-10.996 E5.25847
G1 X37.993 Y-10.278 E5.29789
G1 X38.248 Y-9.531 E5.33727
G1 X38.427 Y-8.762 E5.37666
G1 X38.527 Y-7.978 E5.41609
G1 X38.55 Y-7.383 E5.4458
G1 X38.55 Y7.383 E6.18248
G1 X38.51 Y8.172 E6.22189
G1 X38.391 Y8.952 E6.26126
G1 X38.193 Y9.717 E6.30068
G1 X37.919 Y10.457 E6.34005
G1 X37.571 Y11.166 E6.37945
G1 X37.153 Y11.837 E6.41889
G1 X36.67 Y12.461 E6.45826
G1 X36.265 Y12.898 E6.48799
G1 X36.148 Y13.015 E6.49624
G1 X35.562 Y13.545 E6.53566
G1 X34.926 Y14.012 E6.57502
G1 X34.246 Y14.413 E6.61441
G1 X33.528 Y14.743 E6.65383
G1 X32.781 Y14.998 E6.69321
G1 X32.012 Y15.177 E6.7326
G1 X31.228 Y15.277 E6.77203
G1 X30.633 Y15.3 E6.80174
G1 X-26.518 Y15.3 E9.65302
G0 F3600 X-26.518 Y14.9
G1 F1800 X-27.286 Y14.86 E9.69138
G1 X-28.046 Y14.741 E9.72976
G1 X-28.789 Y14.543 E9.76812
G1 X-29.508 Y14.269 E9.80651
G1 X-30.194 Y13.922 E9.84487
G1 X-30.841 Y13.506 E9.88324
G1 X-31.441 Y13.025 E9.92161
G1 X-31.751 Y12.733 E9.94285
G1 X-31.868 Y12.616 E9.95111
G1 X-32.382 Y12.044 E9.98948
G1 X-32.835 Y11.422 E10.02786
G1 X-33.221 Y10.757 E10.06623
G1 X-33.536 Y10.055 E10.10461
G1 X-33.776 Y9.324 E10.143
G1 X-33.939 Y8.573 E10.18134
G1 X-34.023 Y7.808 E10.21973
G1 X-34.035 Y7.384 E10.24089
G1 X-34.036 Y-7.382 E10.97757
G1 X-33.996 Y-8.151 E11.01599
G1 X-33.877 Y-8.91 E11.05432
G1 X-33.679 Y-9.654 E11.09273
G1 X-33.405 Y-10.373 E11.13112
G1 X-33.058 Y-11.059 E11.16947
G1 X-32.642 Y-11.706 E11.20785
G1 X-32.161 Y-12.306 E11.24621
G1 X-31.869 Y-12.616 E11.26746
G1 X-31.752 Y-12.733 E11.27571
G1 X-31.18 Y-13.247 E11.31408
G1 X-30.558 Y-13.7 E11.35247
G1 X-29.893 Y-14.086 E11.39083
G1 X-29.191 Y-14.401 E11.42922
G1 X-28.46 Y-14.641 E11.4676
G1 X-27.709 Y-14.804 E11.50594
G1 X-26.944 Y-14.888 E11.54434
G1 X-26.519 Y-14.9 E11.56555
G1 X30.633 Y-14.9 E14.41688
G1 X31.401 Y-14.86 E14.45524
G1 X32.161 Y-14.741 E14.49362
G1 X32.904 Y-14.543 E14.53198
G1 X33.623 Y-14.269 E14.57037
G1 X34.309 Y-13.922 E14.60873
G1 X34.956 Y-13.506 E14.6471
G1 X35.556 Y-13.025 E14.68547
G1 X35.866 Y-12.733 E14.70671
G1 X35.983 Y-12.616 E14.71497
G1 X36.497 Y-12.044 E14.75333
G1 X36.95 Y-11.422 E14.79172
G1 X37.336 Y-10.757 E14.83008
G1 X37.651 Y-10.055 E14.86847
G1 X37.891 Y-9.324 E14.90686
G1 X38.054 Y-8.573 E14.9452
G1 X38.138 Y-7.808 E14.98359
G1 X38.15 Y-7.383 E15.0048
G1 X38.15 Y7.383 E15.74148
G1 X38.11 Y8.151 E15.77985
G1 X37.991 Y8.911 E15.81823
G1 X37.793 Y9.654 E15.85659
G1 X37.519 Y10.373 E15.89498
G1 X37.172 Y11.059 E15.93333
G1 X36.756 Y11.706 E15.97171
G1 X36.275 Y12.306 E16.01007
G1 X35.983 Y12.616 E16.03132
G1 X35.866 Y12.733 E16.03957
G1 X35.294 Y13.247 E16.07794
G1 X34.672 Y13.7 E16.11633
G1 X34.007 Y14.086 E16.15469
G1 X33.305 Y14.401 E16.19308
G1 X32.574 Y14.641 E16.23146
G1 X31.823 Y14.804 E16.2698
G1 X31.058 Y14.888 E16.3082
G1 X30.633 Y14.9 E16.32941
G1 X-26.518 Y14.9 E19.18069
G0 F3600 X-26.518 Y14.5
G1 F1800 X-27.265 Y14.46 E19.21801
G1 X-28.003 Y14.341 E19.2553
G1 X-28.725 Y14.143 E19.29265
G1 X-29.421 Y13.87 E19.32995
G1 X-30.084 Y13.523 E19.36729
G1 X-30.707 Y13.108 E19.40463
G1 X-31.468 Y12.45 E19.45482
G1 X-31.585 Y12.333 E19.46308
G1 X-32.085 Y11.776 E19.50042
G1 X-32.522 Y11.17 E19.53769
G1 X-32.893 Y10.52 E19.57503
G1 X-33.192 Y9.834 E19.61237
G1 X-33.416 Y9.12 E19.6497
G1 X-33.563 Y8.387 E19.687
G1 X-33.635 Y7.383 E19.73722
G1 X-33.636 Y-7.383 E20.4739
G1 X-33.596 Y-8.13 E20.51122
G1 X-33.477 Y-8.868 E20.54851
G1 X-33.279 Y-9.59 E20.58586
G1 X-33.006 Y-10.286 E20.62316
G1 X-32.66 Y-10.949 E20.66047
G1 X-32.245 Y-11.571 E20.69778
G1 X-31.586 Y-12.333 E20.74804
G1 X-31.469 Y-12.45 E20.75629
G1 X-30.912 Y-12.95 E20.79364
G1 X-30.306 Y-13.387 E20.83091
G1 X-29.656 Y-13.758 E20.86825
G1 X-28.97 Y-14.057 E20.90558
G1 X-28.256 Y-14.281 E20.94292
G1 X-27.523 Y-14.428 E20.98021
G1 X-26.519 Y-14.5 E21.03043
G1 X30.633 Y-14.5 E23.88176
G1 X31.38 Y-14.46 E23.91908
G1 X32.118 Y-14.341 E23.95637
G1 X32.84 Y-14.143 E23.99372
G1 X33.536 Y-13.87 E24.03102
G1 X34.199 Y-13.523 E24.06836
G1 X34.822 Y-13.108 E24.1057
G1 X35.583 Y-12.45 E24.15589
G1 X35.7 Y-12.333 E24.16415
G1 X36.2 Y-11.776 E24.20149
G1 X36.637 Y-11.17 E24.23877
G1 X37.008 Y-10.52 E24.27611
G1 X37.307 Y-9.834 E24.31344
G1 X37.531 Y-9.12 E24.35077
G1 X37.678 Y-8.387 E24.38807
G1 X37.75 Y-7.383 E24.43829
G1 X37.75 Y7.383 E25.17497
G1 X37.71 Y8.13 E25.21229
G1 X37.591 Y8.868 E25.24958
G1 X37.393 Y9.59 E25.28694
G1 X37.12 Y10.286 E25.32423
G1 X36.773 Y10.949 E25.36157
G1 X36.358 Y11.572 E25.39891
G1 X35.7 Y12.333 E25.4491
G1 X35.583 Y12.45 E25.45736
G1 X35.026 Y12.95 E25.4947
G1 X34.42 Y13.387 E25.53198
G1 X33.77 Y13.758 E25.56932
G1 X33.084 Y14.057 E25.60665
G1 X32.37 Y14.281 E25.64398
G1 X31.637 Y14.428 E25.68128
G1 X30.633 Y14.5 E25.7315
G1 X-26.518 Y14.5 E28.58278
G0 F3600 X-26.518 Y14.1
G1 F1800 X-27.243 Y14.06 E28.619
G1 X-27.96 Y13.941 E28.65526
G1 X-28.659 Y13.743 E28.69151
G1 X-29.332 Y13.47 E28.72774
G1 X-29.971 Y13.125 E28.76397
G1 X-30.568 Y12.711 E28.80021
G1 X-31.185 Y12.167 E28.84125
G1 X-31.302 Y12.05 E28.84951
G1 X-31.786 Y11.509 E28.88572
G1 X-32.209 Y10.918 E28.92198
G1 X-32.563 Y10.284 E28.95821
G1 X-32.846 Y9.615 E28.99445
G1 X-33.054 Y8.919 E29.03069
G1 X-33.184 Y8.204 E29.06695
G1 X-33.235 Y7.383 E29.10799
G1 X-33.236 Y-7.383 E29.84466
G1 X-33.196 Y-8.108 E29.88089
G1 X-33.077 Y-8.824 E29.9171
G1 X-32.879 Y-9.523 E29.95335
G1 X-32.606 Y-10.196 E29.98958
G1 X-32.261 Y-10.835 E30.02581
G1 X-31.848 Y-11.433 E30.06207
G1 X-31.303 Y-12.05 E30.10314
G1 X-31.186 Y-12.167 E30.11139
G1 X-30.645 Y-12.651 E30.14761
G1 X-30.054 Y-13.074 E30.18387
G1 X-29.42 Y-13.428 E30.2201
G1 X-28.751 Y-13.711 E30.25634
G1 X-28.055 Y-13.919 E30.29258
G1 X-27.34 Y-14.049 E30.32883
G1 X-26.519 Y-14.1 E30.36987
G1 X30.633 Y-14.1 E33.2212
G1 X31.358 Y-14.06 E33.25742
G1 X32.075 Y-13.941 E33.29368
G1 X32.774 Y-13.743 E33.32993
G1 X33.447 Y-13.47 E33.36616
G1 X34.086 Y-13.125 E33.40239
G1 X34.683 Y-12.711 E33.43864
G1 X35.3 Y-12.167 E33.47967
G1 X35.417 Y-12.05 E33.48793
G1 X35.901 Y-11.509 E33.52415
G1 X36.324 Y-10.918 E33.5604
G1 X36.678 Y-10.284 E33.59663
G1 X36.961 Y-9.615 E33.63287
G1 X37.169 Y-8.919 E33.66911
G1 X37.299 Y-8.204 E33.70537
G1 X37.35 Y-7.383 E33.74641
G1 X37.35 Y7.383 E34.48309
G1 X37.31 Y8.108 E34.51931
G1 X37.191 Y8.825 E34.55557
G1 X36.993 Y9.524 E34.59182
G1 X36.72 Y10.197 E34.62805
G1 X36.375 Y10.836 E34.66428
G1 X35.961 Y11.433 E34.70053
G1 X35.417 Y12.05 E34.74156
G1 X35.3 Y12.167 E34.74982
G1 X34.759 Y12.651 E34.78603
G1 X34.168 Y13.074 E34.82229
G1 X33.534 Y13.428 E34.85852
G1 X32.865 Y13.711 E34.89476
G1 X32.169 Y13.919 E34.931
G1 X31.454 Y14.049 E34.96726
G1 X30.633 Y14.1 E35.0083
G1 X-26.518 Y14.1 E37.85957
G0 F3600 X-26.518 Y13.7
G1 F1800 X-27.221 Y13.66 E37.8947
G1 X-27.915 Y13.541 E37.92983
G1 X-28.59 Y13.343 E37.96493
G1 X-29.239 Y13.071 E38.00003
G1 X-29.853 Y12.726 E38.03517
G1 X-30.424 Y12.315 E38.07027
G1 X-30.902 Y11.884 E38.10238
G1 X-31.019 Y11.767 E38.11063
G1 X-31.488 Y11.242 E38.14576
G1 X-31.894 Y10.667 E38.18087
G1 X-32.232 Y10.049 E38.21602
G1 X-32.499 Y9.398 E38.25112
G1 X-32.689 Y8.72 E38.28625
G1 X-32.802 Y8.025 E38.32138
G1 X-32.835 Y7.383 E38.35345
G1 X-32.836 Y-7.383 E39.09013
G1 X-32.796 Y-8.085 E39.12521
G1 X-32.677 Y-8.779 E39.16034
G1 X-32.48 Y-9.455 E39.19547
G1 X-32.207 Y-10.104 E39.23059
G1 X-31.863 Y-10.718 E39.26571
G1 X-31.451 Y-11.289 E39.30083
G1 X-31.02 Y-11.767 E39.33294
G1 X-30.903 Y-11.884 E39.3412
G1 X-30.378 Y-12.353 E39.37632
G1 X-29.803 Y-12.759 E39.41144
G1 X-29.185 Y-13.097 E39.44658
G1 X-28.534 Y-13.364 E39.48168
G1 X-27.856 Y-13.554 E39.51681
G1 X-27.161 Y-13.667 E39.55194
G1 X-26.519 Y-13.7 E39.58401
G1 X30.633 Y-13.7 E42.43534
G1 X31.336 Y-13.66 E42.47047
G1 X32.03 Y-13.541 E42.5056
G1 X32.705 Y-13.343 E42.54069
G1 X33.354 Y-13.071 E42.5758
G1 X33.968 Y-12.726 E42.61094
G1 X34.539 Y-12.315 E42.64604
G1 X35.017 Y-11.884 E42.67815
G1 X35.134 Y-11.767 E42.6864
G1 X35.603 Y-11.242 E42.72152
G1 X36.009 Y-10.667 E42.75664
G1 X36.347 Y-10.049 E42.79178
G1 X36.614 Y-9.398 E42.82689
G1 X36.804 Y-8.72 E42.86202
G1 X36.917 Y-8.025 E42.89714
G1 X36.95 Y-7.383 E42.92922
G1 X36.95 Y7.383 E43.66589
G1 X36.91 Y8.086 E43.70102
G1 X36.791 Y8.78 E43.73615
G1 X36.593 Y9.455 E43.77125
G1 X36.321 Y10.104 E43.80636
G1 X35.976 Y10.718 E43.84149
G1 X35.565 Y11.289 E43.87659
G1 X35.134 Y11.767 E43.9087
G1 X35.017 Y11.884 E43.91696
G1 X34.492 Y12.353 E43.95208
G1 X33.917 Y12.759 E43.9872
G1 X33.299 Y13.097 E44.02234
G1 X32.648 Y13.364 E44.05744
G1 X31.97 Y13.554 E44.09257
G1 X31.275 Y13.667 E44.1277
G1 X30.633 Y13.7 E44.15977
G1 X-26.518 Y13.7 E47.01105
G0 F3600 X-26.518 Y13.3
G1 F1800 X-27.198 Y13.26 E47.04503
G1 X-27.868 Y13.141 E47.07898
G1 X-28.52 Y12.944 E47.11296
G1 X-29.144 Y12.672 E47.14692
G1 X-29.732 Y12.328 E47.18091
G1 X-30.276 Y11.918 E47.21489
G1 X-30.619 Y11.601 E47.2382
G1 X-30.736 Y11.484 E47.24645
G1 X-31.189 Y10.975 E47.28044
G1 X-31.578 Y10.417 E47.31438
G1 X-31.9 Y9.817 E47.34835
G1 X-32.149 Y9.183 E47.38234
G1 X-32.322 Y8.524 E47.41633
G1 X-32.416 Y7.85 E47.45028
G1 X-32.435 Y7.383 E47.4736
G1 X-32.436 Y-7.383 E48.21028
G1 X-32.396 Y-8.062 E48.24421
G1 X-32.277 Y-8.733 E48.27821
G1 X-32.08 Y-9.384 E48.31214
G1 X-31.808 Y-10.009 E48.34615
G1 X-31.464 Y-10.597 E48.38013
G1 X-31.054 Y-11.14 E48.41408
G1 X-30.737 Y-11.484 E48.43742
G1 X-30.62 Y-11.601 E48.44567
G1 X-30.111 Y-12.054 E48.47967
G1 X-29.553 Y-12.443 E48.5136
G1 X-28.953 Y-12.765 E48.54758
G1 X-28.319 Y-13.014 E48.58156
G1 X-27.66 Y-13.187 E48.61555
G1 X-26.986 Y-13.281 E48.6495
G1 X-26.519 Y-13.3 E48.67282
G1 X30.633 Y-13.3 E51.52414
G1 X31.313 Y-13.26 E51.55813
G1 X31.983 Y-13.141 E51.59208
G1 X32.635 Y-12.944 E51.62606
G1 X33.259 Y-12.672 E51.66002
G1 X33.847 Y-12.328 E51.69401
G1 X34.391 Y-11.918 E51.72799
G1 X34.734 Y-11.601 E51.75129
G1 X34.851 Y-11.484 E51.75955
G1 X35.304 Y-10.975 E51.79354
G1 X35.693 Y-10.417 E51.82748
G1 X36.015 Y-9.817 E51.86145
G1 X36.264 Y-9.183 E51.89543
G1 X36.437 Y-8.524 E51.92942
G1 X36.531 Y-7.85 E51.96338
G1 X36.55 Y-7.383 E51.98669
G1 X36.55 Y7.383 E52.72337
G1 X36.51 Y8.063 E52.75736
G1 X36.391 Y8.733 E52.79131
G1 X36.194 Y9.385 E52.82529
G1 X35.922 Y10.009 E52.85925
G1 X35.578 Y10.597 E52.89323
G1 X35.168 Y11.141 E52.92722
G1 X34.851 Y11.484 E52.95052
G1 X34.734 Y11.601 E52.95878
G1 X34.225 Y12.054 E52.99277
G1 X33.667 Y12.443 E53.02671
G1 X33.067 Y12.765 E53.06068
G1 X32.433 Y13.014 E53.09466
G1 X31.774 Y13.187 E53.12865
G1 X31.1 Y13.281 E53.1626
G1 X30.633 Y13.3 E53.18592
G1 X-26.518 Y13.3 E56.0372
G0 F3600 X-26.518 Y12.9
G1 F1800 X-27.174 Y12.86 E56.06999
G1 X-27.82 Y12.741 E56.10276
G1 X-28.447 Y12.544 E56.13555
G1 X-29.045 Y12.272 E56.16832
G1 X-29.606 Y11.93 E56.2011
G1 X-30.336 Y11.318 E56.24863
G1 X-30.453 Y11.201 E56.25688
G1 X-30.889 Y10.709 E56.28968
G1 X-31.261 Y10.168 E56.32243
G1 X-31.565 Y9.586 E56.35519
G1 X-31.796 Y8.971 E56.38797
G1 X-31.951 Y8.332 E56.42077
G1 X-32.035 Y7.383 E56.4683
G1 X-32.036 Y-7.383 E57.20498
G1 X-31.996 Y-8.038 E57.23772
G1 X-31.877 Y-8.684 E57.27049
G1 X-31.68 Y-9.311 E57.30328
G1 X-31.409 Y-9.909 E57.33604
G1 X-31.066 Y-10.47 E57.36884
G1 X-30.454 Y-11.201 E57.41641
G1 X-30.337 Y-11.318 E57.42466
G1 X-29.845 Y-11.754 E57.45746
G1 X-29.304 Y-12.126 E57.49021
G1 X-28.722 Y-12.43 E57.52297
G1 X-28.107 Y-12.661 E57.55575
G1 X-27.468 Y-12.816 E57.58855
G1 X-26.519 Y-12.9 E57.63608
G1 X30.633 Y-12.9 E60.48741
G1 X31.289 Y-12.86 E60.5202
G1 X31.935 Y-12.741 E60.55297
G1 X32.562 Y-12.544 E60.58576
G1 X33.16 Y-12.272 E60.61853
G1 X33.721 Y-11.93 E60.65131
G1 X34.451 Y-11.318 E60.69884
G1 X34.568 Y-11.201 E60.70709
G1 X35.004 Y-10.709 E60.73989
G1 X35.376 Y-10.168 E60.77264
G1 X35.68 Y-9.586 E60.8054
G1 X35.911 Y-8.971 E60.83818
G1 X36.066 Y-8.332 E60.87098
G1 X36.15 Y-7.383 E60.91851
G1 X36.15 Y7.383 E61.65519
G1 X36.11 Y8.039 E61.68798
G1 X35.991 Y8.685 E61.72075
G1 X35.794 Y9.312 E61.75354
G1 X35.522 Y9.91 E61.78632
G1 X35.18 Y10.471 E61.8191
G1 X34.568 Y11.201 E61.86662
G1 X34.451 Y11.318 E61.87488
G1 X33.959 Y11.754 E61.90767
G1 X33.418 Y12.126 E61.94043
G1 X32.836 Y12.43 E61.97319
G1 X32.221 Y12.661 E62.00596
G1 X31.582 Y12.816 E62.03877
G1 X30.633 Y12.9 E62.0863
G1 X-26.518 Y12.9 E64.93757
G0 F3600 X-26.518 Y12.5
G1 F1800 X-27.149 Y12.46 E64.96912
G1 X-27.77 Y12.341 E65.00066
G1 X-28.37 Y12.144 E65.03217
G1 X-28.942 Y11.873 E65.06375
G1 X-29.474 Y11.533 E65.09525
G1 X-30.054 Y11.036 E65.13335
G1 X-30.171 Y10.919 E65.14161
G1 X-30.588 Y10.444 E65.17314
G1 X-30.943 Y9.921 E65.20468
G1 X-31.229 Y9.357 E65.23623
G1 X-31.441 Y8.762 E65.26774
G1 X-31.577 Y8.144 E65.29931
G1 X-31.635 Y7.383 E65.33739
G1 X-31.636 Y-7.383 E66.07406
G1 X-31.596 Y-8.014 E66.10561
G1 X-31.477 Y-8.634 E66.1371
G1 X-31.28 Y-9.235 E66.16866
G1 X-31.009 Y-9.806 E66.20019
G1 X-30.669 Y-10.339 E66.23173
G1 X-30.172 Y-10.919 E66.26984
G1 X-30.055 Y-11.036 E66.27809
G1 X-29.58 Y-11.453 E66.30963
G1 X-29.057 Y-11.808 E66.34116
G1 X-28.493 Y-12.094 E66.37271
G1 X-27.898 Y-12.306 E66.40423
G1 X-27.28 Y-12.442 E66.4358
G1 X-26.519 Y-12.5 E66.47387
G1 X30.633 Y-12.5 E69.3252
G1 X31.264 Y-12.46 E69.35674
G1 X31.885 Y-12.341 E69.38829
G1 X32.485 Y-12.144 E69.41979
G1 X33.057 Y-11.873 E69.45137
G1 X33.589 Y-11.533 E69.48287
G1 X34.169 Y-11.036 E69.52098
G1 X34.286 Y-10.919 E69.52923
G1 X34.703 Y-10.444 E69.56077
G1 X35.058 Y-9.921 E69.5923
G1 X35.344 Y-9.357 E69.62385
G1 X35.556 Y-8.762 E69.65536
G1 X35.692 Y-8.144 E69.68693
G1 X35.75 Y-7.383 E69.72501
G1 X35.75 Y7.383 E70.46169
G1 X35.71 Y8.014 E70.49323
G1 X35.591 Y8.635 E70.52478
G1 X35.394 Y9.235 E70.55628
G1 X35.123 Y9.807 E70.58786
G1 X34.783 Y10.339 E70.61936
G1 X34.286 Y10.919 E70.65747
G1 X34.169 Y11.036 E70.66572
G1 X33.694 Y11.453 E70.69726
G1 X33.171 Y11.808 E70.72879
G1 X32.607 Y12.094 E70.76034
G1 X32.012 Y12.306 E70.79185
G1 X31.394 Y12.442 E70.82342
G1 X30.633 Y12.5 E70.8615
G1 X-26.518 Y12.5 E73.71278
G0 F3600 X-26.518 Y12.1
G1 F1800 X-27.123 Y12.06 E73.74303
G1 X-27.717 Y11.941 E73.77325
G1 X-28.291 Y11.745 E73.80351
G1 X-28.834 Y11.474 E73.83379
G1 X-29.337 Y11.135 E73.86405
G1 X-29.771 Y10.753 E73.89289
G1 X-29.888 Y10.636 E73.90115
